;FLAVOR:Marlin
;TIME:12303
;Filament used: 9.78416m
;Layer height: 0.2
;MINX:18.243
;MINY:48.727
;MINZ:0.2
;MAXX:216.757
;MAXY:186.273
;MAXZ:17.6
;Generated with Cura_SteamEngine 4.1.0
M140 S60
M105
M190 S60
M104 S200
M105
M109 S200
M82 ;absolute extrusion mode
; Ender 3 Custom Start G-code
G28 ; Home all axes
G92 E0 ; Reset Extruder
G1 Z2.0 F3000 ; Move Z Axis up little to prevent scratching of Heat Bed
G1 X0.1 Y20 Z0.3 F5000.0 ; Move to start position
G1 X0.1 Y200.0 Z0.3 F1500.0 E15 ; Draw the first line
G1 X0.4 Y200.0 Z0.3 F5000.0 ; Move to side a little
G1 X0.4 Y20 Z0.3 F1500.0 E30 ; Draw the second line
G92 E0 ; Reset Extruder
G1 Z2.0 F3000 ; Move Z Axis up little to prevent scratching of Heat Bed
; End of custom start GCode
G92 E0
G92 E0
G1 F2400 E-5
;LAYER_COUNT:88
;LAYER:0
M107
M204 S500
M205 X10 Y10
;MESH:BMS_Housing_L_Wall_V1.stl
G0 F3600 X34.443 Y51.927 Z0.2
;TYPE:WALL-INNER
G1 F2400 E0
G1 F1800 X34.443 Y52.127 E0.00665
G1 X34.443 Y58.455 E0.21712
G1 X34.322 Y59.405 E0.24897
G1 X33.983 Y60.224 E0.27846
G1 X33.443 Y60.927 E0.30794
G1 X32.74 Y61.467 E0.33742
G1 X31.921 Y61.806 E0.3669
G1 X31.003 Y61.927 E0.3977
G1 X26.034 Y61.927 E0.56297
G1 X24.851 Y62.078 E0.60264
G1 X23.74 Y62.539 E0.64264
G1 X22.786 Y63.27 E0.68262
G1 X22.055 Y64.224 E0.72259
G1 X21.594 Y65.335 E0.7626
G1 X21.443 Y66.488 E0.80128
G1 X21.443 Y96.69 E1.8058
G1 X21.322 Y97.62 E1.83699
G1 X20.983 Y98.439 E1.86647
G1 X20.415 Y99.179 E1.8975
G1 X19 Y100.593 E1.96403
G1 X18.66 Y100.933 E1.98003
G1 X18.66 Y100.453 E1.98861
G1 X18.66 Y100.451 E1.98868
G1 X18.643 Y52.683 E3.57745
G1 X18.766 Y51.643 E3.61228
G1 X19.102 Y50.832 E3.64148
G1 X19.643 Y50.126 E3.67106
G1 X20.346 Y49.586 E3.70055
G1 X21.165 Y49.247 E3.73003
G1 X22.083 Y49.127 E3.76082
G1 X204.293 Y49.13 E9.82115
G1 X205.295 Y49.131 E9.85448
G1 X206.215 Y49.252 E9.88534
G1 X207.03 Y49.59 E9.91469
G1 X207.736 Y50.13 E9.94425
G1 X208.276 Y50.836 E9.97381
G1 X208.614 Y51.651 E10.00316
G1 X208.735 Y52.571 E10.03402
G1 X208.735 Y116.509 E12.16061
G1 X208.736 Y116.937 E12.17484
G1 X208.886 Y118.083 E12.21328
G1 X209.347 Y119.194 E12.25329
G1 X210.054 Y120.115 E12.29191
G1 X215.301 Y125.365 E12.53878
G1 X215.898 Y126.133 E12.57113
G1 X216.237 Y126.952 E12.60062
G1 X216.357 Y127.87 E12.63141
G1 X216.356 Y182.439 E14.44638
G1 X216.236 Y183.353 E14.47704
G1 X215.898 Y184.168 E14.50639
G1 X215.358 Y184.874 E14.53595
G1 X214.652 Y185.414 E14.56551
G1 X213.837 Y185.752 E14.59486
G1 X212.917 Y185.873 E14.62572
G1 X18.643 Y185.873 E21.0873
G1 X18.643 Y183.073 E21.18043
G1 X195.626 Y183.073 E27.06691
G1 X196.003 Y183.072 E27.07945
G1 X197.149 Y182.922 E27.11789
G1 X198.26 Y182.461 E27.1579
G1 X199.214 Y181.73 E27.19787
G1 X199.945 Y180.776 E27.23784
G1 X200.406 Y179.665 E27.27785
G1 X200.557 Y178.512 E27.31653
G1 X200.557 Y176.521 E27.38275
G1 X200.678 Y175.595 E27.41381
G1 X201.017 Y174.776 E27.44329
G1 X201.557 Y174.073 E27.47277
G1 X202.26 Y173.533 E27.50226
G1 X203.079 Y173.194 E27.53174
G1 X203.997 Y173.073 E27.56254
G1 X208.966 Y173.073 E27.72781
G1 X210.149 Y172.922 E27.76747
G1 X211.26 Y172.461 E27.80748
G1 X212.214 Y171.73 E27.84745
G1 X212.945 Y170.776 E27.88743
G1 X213.406 Y169.665 E27.92743
G1 X213.557 Y168.512 E27.96611
G1 X213.557 Y128.452 E29.29851
G1 X213.512 Y127.84 E29.31892
G1 X213.348 Y127.442 E29.33324
G1 X213.118 Y127.141 E29.34584
G1 X206.117 Y120.138 E29.67519
G1 X205.991 Y119.98 E29.68191
G1 X205.955 Y119.894 E29.68501
G1 X205.935 Y119.721 E29.6908
G1 X205.935 Y66.891 E31.44794
G1 X205.786 Y65.746 E31.48634
G1 X205.327 Y64.635 E31.52632
G1 X204.597 Y63.68 E31.5663
G1 X203.643 Y62.947 E31.60632
G1 X202.533 Y62.485 E31.64631
G1 X201.381 Y62.333 E31.68495
G1 X196.402 Y62.331 E31.85056
G1 X195.457 Y62.209 E31.88225
G1 X194.638 Y61.871 E31.91172
G1 X193.935 Y61.331 E31.9412
G1 X193.396 Y60.629 E31.97064
G1 X193.055 Y59.807 E32.00024
G1 X192.935 Y58.891 E32.03096
G1 X192.935 Y51.931 E32.26245
G1 X36.012 Y51.928 E37.48173
G1 X34.643 Y51.927 E37.52727
G1 X34.443 Y51.927 E37.53157
G0 F3600 X34.373 Y51.857
G0 X28.308 Y55.085
G0 X27.656 Y55.584
G0 X26.789 Y56.967
G0 X26.88 Y57.005
G1 F1800 X26.775 Y57.808 E37.55851
G1 X26.88 Y58.611 E37.58545
G1 X27.191 Y59.361 E37.61245
G1 X27.684 Y60.004 E37.6394
G1 X28.327 Y60.497 E37.66635
G1 X29.077 Y60.808 E37.69335
G1 X29.88 Y60.913 E37.72029
G1 X30.683 Y60.808 E37.74722
G1 X31.433 Y60.497 E37.77423
G1 X32.076 Y60.004 E37.80118
G1 X32.569 Y59.361 E37.82813
G1 X32.88 Y58.611 E37.85513
G1 X32.985 Y57.808 E37.88207
G1 X32.88 Y57.005 E37.909
G1 X32.569 Y56.255 E37.93601
G1 X32.076 Y55.612 E37.96295
G1 X31.433 Y55.119 E37.9899
G1 X30.683 Y54.808 E38.01691
G1 X29.88 Y54.703 E38.04384
G1 X29.077 Y54.808 E38.07078
G1 X28.327 Y55.119 E38.09778
G1 X27.684 Y55.612 E38.12473
G1 X27.191 Y56.255 E38.15168
G1 X26.88 Y57.005 E38.17869
G0 F3600 X26.789 Y56.967
G0 X27.157 Y56.236
G0 X27.656 Y55.584
G0 X28.308 Y55.085
G0 X34.415 Y51.899
G0 X192.963 Y51.903
G0 X194.429 Y56.967
G0 X194.52 Y57.005
G1 F1800 X194.415 Y57.808 E38.20562
G1 X194.52 Y58.611 E38.23256
G1 X194.831 Y59.361 E38.25956
G1 X195.324 Y60.004 E38.28651
G1 X195.967 Y60.497 E38.31346
G1 X196.717 Y60.808 E38.34046
G1 X197.52 Y60.913 E38.3674
G1 X198.323 Y60.808 E38.39433
G1 X199.073 Y60.497 E38.42134
G1 X199.716 Y60.004 E38.44829
G1 X200.209 Y59.361 E38.47524
G1 X200.52 Y58.611 E38.50224
G1 X200.625 Y57.808 E38.52918
G1 X200.52 Y57.005 E38.55611
G1 X200.209 Y56.255 E38.58312
G1 X199.716 Y55.612 E38.61007
G1 X199.073 Y55.119 E38.63701
G1 X198.323 Y54.808 E38.66402
G1 X197.52 Y54.703 E38.69095
G1 X196.717 Y54.808 E38.71789
G1 X195.967 Y55.119 E38.74489
G1 X195.324 Y55.612 E38.77184
G1 X194.831 Y56.255 E38.79879
G1 X194.52 Y57.005 E38.8258
G0 F3600 X194.429 Y56.967
G0 X194.374 Y57.808
G0 X194.741 Y61.875
G0 X201.385 Y62.294
G0 X202.54 Y62.446
G0 X203.663 Y62.913
G0 X204.627 Y63.654
G0 X205.361 Y64.615
G0 X205.825 Y65.737
G0 X205.974 Y66.887
G0 X206.149 Y120.115
G0 X213.146 Y127.112
G0 X213.55 Y127.832
G0 X213.596 Y168.516
G0 X213.445 Y169.672
G0 X212.979 Y170.795
G0 X212.242 Y171.758
G0 X211.279 Y172.495
G0 X210.156 Y172.961
G0 X203.457 Y173.69
G0 X202.044 Y176.35
G0 X202.135 Y176.388
G1 F1800 X202.03 Y177.191 E38.85273
G1 X202.135 Y177.994 E38.87967
G1 X202.446 Y178.744 E38.90667
G1 X202.939 Y179.387 E38.93362
G1 X203.582 Y179.88 E38.96057
G1 X204.332 Y180.191 E38.98757
G1 X205.135 Y180.296 E39.01451
G1 X205.938 Y180.191 E39.04144
G1 X206.688 Y179.88 E39.06845
G1 X207.331 Y179.387 E39.0954
G1 X207.824 Y178.744 E39.12235
G1 X208.135 Y177.994 E39.14935
G1 X208.24 Y177.191 E39.17629
G1 X208.135 Y176.388 E39.20322
G1 X207.824 Y175.638 E39.23023
G1 X207.331 Y174.995 E39.25718
G1 X206.688 Y174.502 E39.28412
G1 X205.938 Y174.191 E39.31113
G1 X205.135 Y174.086 E39.33806
G1 X204.332 Y174.191 E39.365
G1 X203.582 Y174.502 E39.392
G1 X202.939 Y174.995 E39.41895
G1 X202.446 Y175.638 E39.4459
G1 X202.135 Y176.388 E39.47291
G0 F3600 X202.044 Y176.35
G0 X202.829 Y174.976
G0 X203.224 Y175.28
;TYPE:WALL-OUTER
G1 F1800 X202.795 Y175.84 E39.49637
G1 X202.525 Y176.492 E39.51984
G1 X202.433 Y177.191 E39.54329
G1 X202.525 Y177.89 E39.56674
G1 X202.795 Y178.542 E39.59021
G1 X203.224 Y179.102 E39.61367
G1 X203.784 Y179.531 E39.63714
G1 X204.436 Y179.801 E39.66061
G1 X205.135 Y179.893 E39.68406
G1 X205.834 Y179.801 E39.70751
G1 X206.486 Y179.531 E39.73098
G1 X207.046 Y179.102 E39.75444
G1 X207.475 Y178.542 E39.7779
G1 X207.745 Y177.89 E39.80138
G1 X207.837 Y177.191 E39.82483
G1 X207.745 Y176.492 E39.84828
G1 X207.475 Y175.84 E39.87175
G1 X207.046 Y175.28 E39.89521
G1 X206.486 Y174.851 E39.91867
G1 X205.834 Y174.581 E39.94214
G1 X205.135 Y174.489 E39.96559
G1 X204.436 Y174.581 E39.98904
G1 X203.784 Y174.851 E40.01251
G1 X203.224 Y175.28 E40.03598
G0 F3600 X203.103 Y175.438
G0 X202.708 Y175.134
G0 X203.997 Y173.112
G0 X208.972 Y173.112
G0 X210.156 Y172.961
G0 X211.279 Y172.495
G0 X212.242 Y171.758
G0 X212.979 Y170.795
G0 X213.445 Y169.672
G0 X213.596 Y168.516
G0 X213.596 Y128.444
G0 X213.382 Y127.423
G0 X205.974 Y119.716
G0 X205.974 Y66.887
G0 X205.825 Y65.737
G0 X205.361 Y64.615
G0 X204.627 Y63.654
G0 X203.663 Y62.913
G0 X202.54 Y62.446
G0 X201.385 Y62.294
G0 X195.627 Y62.192
G0 X194.481 Y58.618
G0 X194.374 Y57.808
G0 X194.481 Y56.998
G0 X195.214 Y55.593
G0 X195.609 Y55.897
G1 F1800 X195.18 Y56.457 E40.05944
G1 X194.91 Y57.109 E40.08291
G1 X194.818 Y57.808 E40.10636
G1 X194.91 Y58.507 E40.12981
G1 X195.18 Y59.159 E40.15328
G1 X195.609 Y59.719 E40.17674
G1 X196.169 Y60.148 E40.20021
G1 X196.821 Y60.418 E40.22368
G1 X197.52 Y60.51 E40.24713
G1 X198.219 Y60.418 E40.27058
G1 X198.871 Y60.148 E40.29405
G1 X199.431 Y59.719 E40.31751
G1 X199.86 Y59.159 E40.34097
G1 X200.13 Y58.507 E40.36445
G1 X200.222 Y57.808 E40.3879
G1 X200.13 Y57.109 E40.41134
G1 X199.86 Y56.457 E40.43482
G1 X199.431 Y55.897 E40.45828
G1 X198.871 Y55.468 E40.48174
G1 X198.219 Y55.198 E40.50521
G1 X197.52 Y55.106 E40.52866
G1 X196.821 Y55.198 E40.55211
G1 X196.169 Y55.468 E40.57558
G1 X195.609 Y55.897 E40.59905
G0 F3600 X195.488 Y56.055
G0 X195.093 Y55.751
G0 X192.963 Y51.903
G0 X34.844 Y51.828
G0 X34.843 Y52.327
G1 F1800 X34.843 Y52.527 E40.6057
G1 X34.843 Y58.483 E40.8038
G1 X34.712 Y59.509 E40.8382
G1 X34.333 Y60.425 E40.87117
G1 X33.728 Y61.212 E40.90419
G1 X32.941 Y61.817 E40.9372
G1 X32.025 Y62.196 E40.97017
G1 X31.032 Y62.327 E41.00349
G1 X26.059 Y62.327 E41.16889
G1 X24.955 Y62.468 E41.20591
G1 X23.942 Y62.888 E41.24238
G1 X23.071 Y63.555 E41.27887
G1 X22.404 Y64.426 E41.31536
G1 X21.984 Y65.439 E41.35183
G1 X21.843 Y66.514 E41.38789
G1 X21.843 Y96.719 E42.39251
G1 X21.712 Y97.724 E42.42622
G1 X21.333 Y98.64 E42.45919
G1 X20.715 Y99.445 E42.49295
G1 X18.601 Y101.558 E42.59236
G1 X18.26 Y101.898 E42.60838
G1 X18.26 Y101.417 E42.61698
G1 X18.26 Y101.416 E42.61702
G1 X18.243 Y52.662 E44.23858
G1 X18.375 Y51.542 E44.27609
G1 X18.754 Y50.628 E44.309
G1 X19.357 Y49.841 E44.34198
G1 X20.145 Y49.236 E44.37502
G1 X21.061 Y48.857 E44.40799
G1 X22.054 Y48.727 E44.4413
G1 X204.293 Y48.73 E50.50259
G1 X205.324 Y48.731 E50.53688
G1 X206.316 Y48.861 E50.57016
G1 X207.234 Y49.242 E50.60322
G1 X208.021 Y49.845 E50.63619
G1 X208.624 Y50.632 E50.66917
G1 X209.005 Y51.55 E50.70223
G1 X209.135 Y52.542 E50.7355
G1 X209.135 Y116.509 E52.86305
G1 X209.136 Y116.911 E52.87643
G1 X209.276 Y117.979 E52.91225
G1 X209.696 Y118.992 E52.94872
G1 X210.355 Y119.851 E52.98473
G1 X215.6 Y125.098 E53.23149
G1 X216.248 Y125.932 E53.26662
G1 X216.627 Y126.848 E53.29959
G1 X216.757 Y127.841 E53.3329
G1 X216.756 Y182.468 E55.1498
G1 X216.627 Y183.454 E55.18287
G1 X216.246 Y184.372 E55.21593
G1 X215.643 Y185.159 E55.24891
G1 X214.856 Y185.762 E55.28188
G1 X213.938 Y186.143 E55.31494
G1 X212.946 Y186.273 E55.34822
G1 X18.243 Y186.273 E61.82407
G1 X18.243 Y182.673 E61.9438
G1 X195.625 Y182.673 E67.84355
G1 X195.976 Y182.672 E67.85523
G1 X197.045 Y182.532 E67.89108
G1 X198.058 Y182.112 E67.92756
G1 X198.929 Y181.445 E67.96405
G1 X199.596 Y180.574 E68.00053
G1 X200.016 Y179.561 E68.03701
G1 X200.157 Y178.486 E68.07307
G1 X200.157 Y176.492 E68.13939
G1 X200.288 Y175.491 E68.17297
G1 X200.667 Y174.575 E68.20594
G1 X201.272 Y173.788 E68.23895
G1 X202.059 Y173.183 E68.27197
G1 X202.975 Y172.804 E68.30494
G1 X203.968 Y172.673 E68.33826
G1 X208.941 Y172.673 E68.50366
G1 X210.045 Y172.532 E68.54068
G1 X211.058 Y172.112 E68.57715
G1 X211.929 Y171.445 E68.61364
G1 X212.596 Y170.574 E68.65013
G1 X213.016 Y169.561 E68.6866
G1 X213.157 Y168.486 E68.72266
G1 X213.157 Y128.467 E70.0537
G1 X213.118 Y127.933 E70.07151
G1 X212.998 Y127.643 E70.08194
G1 X212.816 Y127.405 E70.09191
G1 X205.821 Y120.408 E70.42098
G1 X205.642 Y120.184 E70.43052
G1 X205.565 Y119.998 E70.43721
G1 X205.535 Y119.742 E70.44579
G1 X205.535 Y66.917 E72.20275
G1 X205.396 Y65.85 E72.23854
G1 X204.977 Y64.836 E72.27503
G1 X204.311 Y63.965 E72.3115
G1 X203.441 Y63.296 E72.348
G1 X202.428 Y62.875 E72.38449
G1 X201.355 Y62.733 E72.42049
G1 X196.374 Y62.731 E72.58616
G1 X195.353 Y62.599 E72.6204
G1 X194.437 Y62.221 E72.65336
G1 X193.65 Y61.616 E72.68637
G1 X193.046 Y60.83 E72.71934
G1 X192.665 Y59.911 E72.75243
G1 X192.535 Y58.92 E72.78567
G1 X192.535 Y52.331 E73.00483
G1 X36.012 Y52.328 E78.2108
G1 X35.043 Y52.327 E78.24303
G1 X34.843 Y52.327 E78.24734
G0 F3600 X34.843 Y52.527
G0 X34.343 Y52.527
G0 X28.308 Y55.085
G0 X27.574 Y55.593
G0 X27.969 Y55.897
G1 F1800 X27.54 Y56.457 E78.2708
G1 X27.27 Y57.109 E78.29427
G1 X27.178 Y57.808 E78.31772
G1 X27.27 Y58.507 E78.34117
G1 X27.54 Y59.159 E78.36464
G1 X27.969 Y59.719 E78.38811
G1 X28.529 Y60.148 E78.41157
G1 X29.181 Y60.418 E78.43504
G1 X29.88 Y60.51 E78.45849
G1 X30.579 Y60.418 E78.48194
G1 X31.231 Y60.148 E78.50541
G1 X31.791 Y59.719 E78.52887
G1 X32.22 Y59.159 E78.55234
G1 X32.49 Y58.507 E78.57581
G1 X32.582 Y57.808 E78.59926
G1 X32.49 Y57.109 E78.62271
G1 X32.22 Y56.457 E78.64618
G1 X31.791 Y55.897 E78.66964
G1 X31.231 Y55.468 E78.6931
G1 X30.579 Y55.198 E78.71657
G1 X29.88 Y55.106 E78.74002
G1 X29.181 Y55.198 E78.76347
G1 X28.529 Y55.468 E78.78694
G1 X27.969 Y55.897 E78.81041
G0 F3600 X27.848 Y56.055
G0 X27.405 Y55.333
;TYPE:SKIN
G1 F1800 X26.85 Y56.058 E78.84078
G1 X26.5 Y56.903 E78.8712
G1 X26.381 Y57.808 E78.90156
G1 X26.5 Y58.713 E78.93191
G1 X26.85 Y59.558 E78.96234
G1 X27.405 Y60.283 E78.9927
G1 X28.13 Y60.838 E79.02307
G1 X28.975 Y61.188 E79.05349
G1 X29.88 Y61.307 E79.08385
G1 X30.785 Y61.188 E79.11421
G1 X31.63 Y60.838 E79.14463
G1 X32.355 Y60.283 E79.175
G1 X32.91 Y59.558 E79.20537
G1 X33.26 Y58.713 E79.23579
G1 X33.379 Y57.808 E79.26615
G1 X33.26 Y56.903 E79.29651
G1 X32.91 Y56.058 E79.32693
G1 X32.355 Y55.333 E79.35729
G1 X31.63 Y54.778 E79.38766
G1 X30.785 Y54.428 E79.41808
G1 X29.88 Y54.309 E79.44844
G1 X28.975 Y54.428 E79.4788
G1 X28.13 Y54.778 E79.50922
G1 X27.405 Y55.333 E79.53959
G0 F3600 X26.898 Y56.831
G0 X26.009 Y61.537
G1 F1800 X24.75 Y61.698 E79.58181
G1 X23.543 Y62.198 E79.62526
G1 X22.507 Y62.991 E79.66865
G1 X21.714 Y64.027 E79.71205
G1 X21.214 Y65.233 E79.75547
G1 X21.053 Y66.463 E79.79673
G1 X21.053 Y96.67 E80.80142
G1 X20.944 Y97.514 E80.82972
G1 X20.642 Y98.241 E80.8559
G1 X20.111 Y98.933 E80.88491
G1 X19.05 Y99.993 E80.9348
G1 X19.033 Y52.712 E82.50737
G1 X19.148 Y51.743 E82.53983
G1 X19.444 Y51.029 E82.56553
G1 X19.922 Y50.405 E82.59168
G1 X20.544 Y49.927 E82.61777
G1 X21.271 Y49.625 E82.64395
G1 X22.104 Y49.517 E82.67189
G1 X204.293 Y49.52 E88.73152
G1 X205.274 Y49.521 E88.76415
G1 X206.111 Y49.631 E88.79223
G1 X206.833 Y49.93 E88.81822
G1 X207.458 Y50.408 E88.84439
G1 X207.936 Y51.033 E88.87056
G1 X208.235 Y51.755 E88.89655
G1 X208.345 Y52.592 E88.92463
G1 X208.345 Y116.509 E91.05052
G1 X208.346 Y116.962 E91.06558
G1 X208.506 Y118.185 E91.10661
G1 X209.006 Y119.391 E91.15003
G1 X209.76 Y120.373 E91.19121
G1 X214.999 Y125.613 E91.43766
G1 X215.557 Y126.331 E91.4679
G1 X215.859 Y127.058 E91.49409
G1 X215.967 Y127.891 E91.52202
G1 X215.966 Y182.418 E93.3356
G1 X215.857 Y183.249 E93.36347
G1 X215.558 Y183.971 E93.38947
G1 X215.08 Y184.596 E93.41564
G1 X214.455 Y185.074 E93.44181
G1 X213.733 Y185.373 E93.4678
G1 X212.896 Y185.483 E93.49588
G1 X19.033 Y185.483 E99.94379
G1 X19.033 Y183.463 E100.01097
G1 X195.626 Y183.463 E105.88448
G1 X196.028 Y183.462 E105.89785
G1 X197.251 Y183.302 E105.93887
G1 X198.457 Y182.802 E105.98229
G1 X199.493 Y182.009 E106.02569
G1 X200.286 Y180.973 E106.06908
G1 X200.786 Y179.767 E106.1125
G1 X200.947 Y178.537 E106.15376
G1 X200.947 Y176.542 E106.22012
G1 X201.056 Y175.701 E106.24832
G1 X201.358 Y174.974 E106.27451
G1 X201.836 Y174.352 E106.3006
G1 X202.458 Y173.874 E106.32669
G1 X203.185 Y173.572 E106.35287
G1 X204.018 Y173.463 E106.38081
G1 X208.991 Y173.463 E106.54622
G1 X210.25 Y173.302 E106.58843
G1 X211.457 Y172.802 E106.63188
G1 X212.493 Y172.009 E106.67528
G1 X213.286 Y170.973 E106.71867
G1 X213.786 Y169.767 E106.76209
G1 X213.947 Y168.537 E106.80335
G1 X213.947 Y128.438 E108.13705
G1 X213.896 Y127.749 E108.16003
G1 X213.689 Y127.245 E108.17815
G1 X213.412 Y126.884 E108.19329
G1 X206.414 Y119.885 E108.52247
G1 X206.336 Y119.787 E108.52664
G1 X206.325 Y119.694 E108.52975
G1 X206.325 Y66.866 E110.28682
