;FLAVOR:Marlin
;TIME:11492
;Filament used: 11.1543m
;Layer height: 0.2
;MINX:18.243
;MINY:48.727
;MINZ:0.2
;MAXX:216.757
;MAXY:186.273
;MAXZ:1
;Generated with Cura_SteamEngine 4.1.0
M140 S60
M105
M190 S60
M104 S200
M105
M109 S200
M82 ;absolute extrusion mode
; Ender 3 Custom Start G-code
G28 ; Home all axes
G92 E0 ; Reset Extruder
G1 Z2.0 F3000 ; Move Z Axis up little to prevent scratching of Heat Bed
G1 X0.1 Y20 Z0.3 F5000.0 ; Move to start position
G1 X0.1 Y200.0 Z0.3 F1500.0 E15 ; Draw the first line
G1 X0.4 Y200.0 Z0.3 F5000.0 ; Move to side a little
G1 X0.4 Y20 Z0.3 F1500.0 E30 ; Draw the second line
G92 E0 ; Reset Extruder
G1 Z2.0 F3000 ; Move Z Axis up little to prevent scratching of Heat Bed
; End of custom start GCode
G92 E0
G92 E0
G1 F2400 E-5
;LAYER_COUNT:5
;LAYER:0
M107
M204 S500
M205 X10 Y10
;MESH:BMS_Housing_L_Top_V1.stl
G0 F3600 X34.48 Y57.005 Z0.2
;TYPE:WALL-INNER
G1 F2400 E0
G1 F1800 X34.375 Y57.808 E0.02694
G1 X34.48 Y58.611 E0.05387
G1 X34.791 Y59.361 E0.08088
G1 X35.284 Y60.004 E0.10782
G1 X35.927 Y60.497 E0.13477
G1 X36.677 Y60.808 E0.16178
G1 X37.48 Y60.913 E0.18871
G1 X38.283 Y60.808 E0.21565
G1 X39.033 Y60.497 E0.24265
G1 X39.676 Y60.004 E0.2696
G1 X40.169 Y59.361 E0.29655
G1 X40.48 Y58.611 E0.32356
G1 X40.585 Y57.808 E0.35049
G1 X40.48 Y57.005 E0.37743
G1 X40.169 Y56.255 E0.40443
G1 X39.676 Y55.612 E0.43138
G1 X39.033 Y55.119 E0.45833
G1 X38.283 Y54.808 E0.48533
G1 X37.48 Y54.703 E0.51227
G1 X36.677 Y54.808 E0.5392
G1 X35.927 Y55.119 E0.56621
G1 X35.284 Y55.612 E0.59316
G1 X34.791 Y56.255 E0.62011
G1 X34.48 Y57.005 E0.64711
G0 F3600 X34.384 Y56.98
G0 X26.21 Y118.108
G0 X26.114 Y118.083
G1 F1800 X26.265 Y116.931 E0.68575
G1 X26.265 Y52.571 E2.82638
G1 X26.386 Y51.651 E2.85724
G1 X26.724 Y50.836 E2.88658
G1 X27.264 Y50.13 E2.91615
G1 X27.97 Y49.59 E2.94571
G1 X28.785 Y49.252 E2.97506
G1 X29.705 Y49.131 E3.00592
G1 X194.627 Y49.128 E8.49125
G1 X212.917 Y49.127 E9.09958
G1 X213.835 Y49.247 E9.13037
G1 X214.654 Y49.586 E9.15985
G1 X215.357 Y50.126 E9.18933
G1 X215.898 Y50.832 E9.21892
G1 X216.236 Y51.647 E9.24826
G1 X216.357 Y52.567 E9.27912
G1 X216.357 Y185.873 E13.7129
G1 X22.083 Y185.873 E20.17448
G1 X21.163 Y185.752 E20.20534
G1 X20.348 Y185.414 E20.23469
G1 X19.642 Y184.874 E20.26425
G1 X19.102 Y184.168 E20.29381
G1 X18.764 Y183.353 E20.32316
G1 X18.643 Y182.433 E20.35402
G1 X18.643 Y127.87 E22.1688
G1 X18.763 Y126.952 E22.19959
G1 X19.102 Y126.133 E22.22907
G1 X19.67 Y125.394 E22.26007
G1 X24.946 Y120.115 E22.50831
G1 X25.653 Y119.194 E22.54692
G1 X26.114 Y118.083 E22.58693
G0 F3600 X26.21 Y118.108
G0 X26.769 Y176.363
G0 X26.865 Y176.388
G1 F1800 X26.76 Y177.191 E22.61387
G1 X26.865 Y177.994 E22.6408
G1 X27.176 Y178.744 E22.66781
G1 X27.669 Y179.387 E22.69476
G1 X28.312 Y179.88 E22.7217
G1 X29.062 Y180.191 E22.74871
G1 X29.865 Y180.296 E22.77564
G1 X30.668 Y180.191 E22.80258
G1 X31.418 Y179.88 E22.82958
G1 X32.061 Y179.387 E22.85653
G1 X32.554 Y178.744 E22.88348
G1 X32.865 Y177.994 E22.91049
G1 X32.97 Y177.191 E22.93742
G1 X32.865 Y176.388 E22.96436
G1 X32.554 Y175.638 E22.99136
G1 X32.061 Y174.995 E23.01831
G1 X31.418 Y174.502 E23.04526
G1 X30.668 Y174.191 E23.07226
G1 X29.865 Y174.086 E23.0992
G1 X29.062 Y174.191 E23.12614
G1 X28.312 Y174.502 E23.15314
G1 X27.669 Y174.995 E23.18009
G1 X27.176 Y175.638 E23.20704
G1 X26.865 Y176.388 E23.23404
G0 F3600 X26.769 Y176.363
G0 X27.142 Y175.619
G0 X27.641 Y174.967
G0 X202.024 Y56.98
G0 X202.12 Y57.005
G1 F1800 X202.015 Y57.808 E23.26098
G1 X202.12 Y58.611 E23.28791
G1 X202.431 Y59.361 E23.31492
G1 X202.924 Y60.004 E23.34187
G1 X203.567 Y60.497 E23.36882
G1 X204.317 Y60.808 E23.39582
G1 X205.12 Y60.913 E23.42276
G1 X205.923 Y60.808 E23.44969
G1 X206.673 Y60.497 E23.4767
G1 X207.316 Y60.004 E23.50364
G1 X207.809 Y59.361 E23.53059
G1 X208.12 Y58.611 E23.5576
G1 X208.225 Y57.808 E23.58453
G1 X208.12 Y57.005 E23.61147
G1 X207.809 Y56.255 E23.63847
G1 X207.316 Y55.612 E23.66542
G1 X206.673 Y55.119 E23.69237
G1 X205.923 Y54.808 E23.71938
G1 X205.12 Y54.703 E23.74631
G1 X204.317 Y54.808 E23.77325
G1 X203.567 Y55.119 E23.80025
G1 X202.924 Y55.612 E23.8272
G1 X202.431 Y56.255 E23.85415
G1 X202.12 Y57.005 E23.88115
G0 F3600 X202.024 Y56.98
G0 X202.814 Y55.593
G0 X203.209 Y55.897
;TYPE:WALL-OUTER
G1 F1800 X202.78 Y56.457 E23.90462
G1 X202.51 Y57.109 E23.92809
G1 X202.418 Y57.808 E23.95154
G1 X202.51 Y58.507 E23.97499
G1 X202.78 Y59.159 E23.99846
G1 X203.209 Y59.719 E24.02192
G1 X203.769 Y60.148 E24.04538
G1 X204.421 Y60.418 E24.06885
G1 X205.12 Y60.51 E24.0923
G1 X205.819 Y60.418 E24.11575
G1 X206.471 Y60.148 E24.13923
G1 X207.031 Y59.719 E24.16269
G1 X207.46 Y59.159 E24.18615
G1 X207.73 Y58.507 E24.20962
G1 X207.822 Y57.808 E24.23307
G1 X207.73 Y57.109 E24.25652
G1 X207.46 Y56.457 E24.27999
G1 X207.031 Y55.897 E24.30346
G1 X206.471 Y55.468 E24.32692
G1 X205.819 Y55.198 E24.35039
G1 X205.12 Y55.106 E24.37384
G1 X204.421 Y55.198 E24.39729
G1 X203.769 Y55.468 E24.42076
G1 X203.209 Y55.897 E24.44422
G0 F3600 X203.088 Y56.055
G0 X202.693 Y55.751
G0 X37.48 Y54.663
G0 X36.667 Y54.77
G0 X35.174 Y55.593
G0 X35.569 Y55.897
G1 F1800 X35.14 Y56.457 E24.46769
G1 X34.87 Y57.109 E24.49116
G1 X34.778 Y57.808 E24.51461
G1 X34.87 Y58.507 E24.53806
G1 X35.14 Y59.159 E24.56153
G1 X35.569 Y59.719 E24.58499
G1 X36.129 Y60.148 E24.60845
G1 X36.781 Y60.418 E24.63192
G1 X37.48 Y60.51 E24.65537
G1 X38.179 Y60.418 E24.67882
G1 X38.831 Y60.148 E24.70229
G1 X39.391 Y59.719 E24.72576
G1 X39.82 Y59.159 E24.74922
G1 X40.09 Y58.507 E24.77269
G1 X40.182 Y57.808 E24.79614
G1 X40.09 Y57.109 E24.81959
G1 X39.82 Y56.457 E24.84306
G1 X39.391 Y55.897 E24.86653
G1 X38.831 Y55.468 E24.88999
G1 X38.179 Y55.198 E24.91346
G1 X37.48 Y55.106 E24.93691
G1 X36.781 Y55.198 E24.96036
G1 X36.129 Y55.468 E24.98383
G1 X35.569 Y55.897 E25.00729
G0 F3600 X35.448 Y56.055
G0 X35.053 Y55.751
G0 X34.474 Y56.919
G0 X26.219 Y118.045
G0 X25.724 Y117.979
G1 F1800 X25.865 Y116.905 E25.04332
G1 X25.865 Y52.542 E27.18404
G1 X25.995 Y51.55 E27.21732
G1 X26.376 Y50.632 E27.25038
G1 X26.979 Y49.845 E27.28335
G1 X27.766 Y49.242 E27.31633
G1 X28.684 Y48.861 E27.34939
G1 X29.676 Y48.731 E27.38266
G1 X194.627 Y48.728 E32.86896
G1 X212.946 Y48.727 E33.47825
G1 X213.939 Y48.857 E33.51156
G1 X214.855 Y49.236 E33.54453
G1 X215.643 Y49.841 E33.57757
G1 X216.246 Y50.628 E33.61055
G1 X216.627 Y51.546 E33.6436
G1 X216.757 Y52.538 E33.67688
G1 X216.757 Y186.273 E38.12493
G1 X22.054 Y186.273 E44.60077
G1 X21.062 Y186.143 E44.63405
G1 X20.144 Y185.762 E44.66711
G1 X19.357 Y185.159 E44.70008
G1 X18.754 Y184.372 E44.73306
G1 X18.373 Y183.454 E44.76612
G1 X18.243 Y182.462 E44.79939
G1 X18.243 Y127.841 E46.6161
G1 X18.373 Y126.848 E46.6494
G1 X18.752 Y125.932 E46.68238
G1 X19.37 Y125.128 E46.7161
G1 X24.645 Y119.851 E46.96427
G1 X25.304 Y118.992 E47.00028
G1 X25.724 Y117.979 E47.03675
G0 F3600 X25.75 Y117.781
G0 X26.245 Y117.846
G0 X27.559 Y174.976
G0 X27.954 Y175.28
G1 F1800 X27.525 Y175.84 E47.06022
G1 X27.255 Y176.492 E47.08369
G1 X27.163 Y177.191 E47.10714
G1 X27.255 Y177.89 E47.13059
G1 X27.525 Y178.542 E47.15406
G1 X27.954 Y179.102 E47.17752
G1 X28.514 Y179.531 E47.20098
G1 X29.166 Y179.801 E47.22446
G1 X29.865 Y179.893 E47.2479
G1 X30.564 Y179.801 E47.27135
G1 X31.216 Y179.531 E47.29483
G1 X31.776 Y179.102 E47.31829
G1 X32.205 Y178.542 E47.34175
G1 X32.475 Y177.89 E47.36522
G1 X32.567 Y177.191 E47.38867
G1 X32.475 Y176.492 E47.41212
G1 X32.205 Y175.84 E47.43559
G1 X31.776 Y175.28 E47.45906
G1 X31.216 Y174.851 E47.48252
G1 X30.564 Y174.581 E47.50599
G1 X29.865 Y174.489 E47.52944
G1 X29.166 Y174.581 E47.55289
G1 X28.514 Y174.851 E47.57636
G1 X27.954 Y175.28 E47.59982
G0 F3600 X27.833 Y175.438
G0 X27.39 Y174.716
;TYPE:SKIN
G1 F1800 X26.835 Y175.441 E47.63019
G1 X26.485 Y176.286 E47.66061
G1 X26.366 Y177.191 E47.69097
G1 X26.485 Y178.096 E47.72133
G1 X26.835 Y178.941 E47.75175
G1 X27.39 Y179.666 E47.78212
G1 X28.115 Y180.221 E47.81249
G1 X28.96 Y180.571 E47.84291
G1 X29.865 Y180.69 E47.87327
G1 X30.77 Y180.571 E47.90363
G1 X31.615 Y180.221 E47.93405
G1 X32.34 Y179.666 E47.96441
G1 X32.895 Y178.941 E47.99478
G1 X33.245 Y178.096 E48.0252
G1 X33.364 Y177.191 E48.05556
G1 X33.245 Y176.286 E48.08592
G1 X32.895 Y175.441 E48.11634
G1 X32.34 Y174.716 E48.14671
G1 X31.615 Y174.161 E48.17708
G1 X30.77 Y173.811 E48.2075
G1 X29.865 Y173.692 E48.23786
G1 X28.96 Y173.811 E48.26822
G1 X28.115 Y174.161 E48.29864
G1 X27.39 Y174.716 E48.32901
G0 F3600 X19.033 Y182.412
G1 F1800 X19.033 Y127.891 E50.14238
G1 X19.141 Y127.058 E50.17032
G1 X19.443 Y126.331 E50.1965
G1 X19.974 Y125.64 E50.22549
G1 X25.24 Y120.373 E50.47321
G1 X25.994 Y119.391 E50.51439
G1 X26.494 Y118.185 E50.55781
G1 X26.655 Y116.956 E50.59903
G1 X26.655 Y52.592 E52.73979
G1 X26.765 Y51.755 E52.76787
G1 X27.064 Y51.033 E52.79386
G1 X27.542 Y50.408 E52.82003
G1 X28.167 Y49.93 E52.8462
G1 X28.889 Y49.631 E52.87219
G1 X29.726 Y49.521 E52.90027
G1 X194.627 Y49.518 E58.3849
G1 X212.896 Y49.517 E58.99253
G1 X213.729 Y49.625 E59.02047
G1 X214.456 Y49.927 E59.04665
G1 X215.078 Y50.405 E59.07274
G1 X215.559 Y51.031 E59.099
G1 X215.857 Y51.751 E59.12492
G1 X215.967 Y52.588 E59.15299
G1 X215.967 Y185.483 E63.5731
G1 X22.104 Y185.483 E70.02101
G1 X21.267 Y185.373 E70.04909
G1 X20.545 Y185.074 E70.07508
G1 X19.92 Y184.596 E70.10125
G1 X19.442 Y183.971 E70.12742
G1 X19.143 Y183.249 E70.15341
G1 X19.033 Y182.412 E70.18149
G0 F3600 X37.48 Y61.307
G1 F1800 X38.385 Y61.188 E70.21185
G1 X39.23 Y60.838 E70.24227
G1 X39.955 Y60.283 E70.27264
G1 X40.51 Y59.558 E70.303
G1 X40.86 Y58.713 E70.33342
G1 X40.979 Y57.808 E70.36378
G1 X40.86 Y56.903 E70.39414
G1 X40.51 Y56.058 E70.42456
G1 X39.955 Y55.333 E70.45493
G1 X39.23 Y54.778 E70.4853
G1 X38.385 Y54.428 E70.51572
G1 X37.48 Y54.309 E70.54608
G1 X36.575 Y54.428 E70.57644
G1 X35.73 Y54.778 E70.60686
G1 X35.005 Y55.333 E70.63723
G1 X34.45 Y56.058 E70.6676
G1 X34.1 Y56.903 E70.69802
G1 X33.981 Y57.808 E70.72838
G1 X34.1 Y58.713 E70.75874
G1 X34.45 Y59.558 E70.78916
G1 X35.005 Y60.283 E70.81952
G1 X35.73 Y60.838 E70.84989
G1 X36.575 Y61.188 E70.88031
G1 X37.48 Y61.307 E70.91067
G0 F3600 X202.09 Y59.558
G1 F1800 X202.645 Y60.283 E70.94104
G1 X203.37 Y60.838 E70.97141
G1 X204.215 Y61.188 E71.00183
G1 X205.12 Y61.307 E71.03219
G1 X206.025 Y61.188 E71.06255
G1 X206.87 Y60.838 E71.09297
G1 X207.595 Y60.283 E71.12333
G1 X208.15 Y59.558 E71.1537
G1 X208.5 Y58.713 E71.18412
G1 X208.619 Y57.808 E71.21448
G1 X208.5 Y56.903 E71.24484
G1 X208.15 Y56.058 E71.27526
G1 X207.595 Y55.333 E71.30563
G1 X206.87 Y54.778 E71.336
G1 X206.025 Y54.428 E71.36642
G1 X205.12 Y54.309 E71.39678
G1 X204.215 Y54.428 E71.42714
G1 X203.37 Y54.778 E71.45756
G1 X202.645 Y55.333 E71.48793
G1 X202.09 Y56.058 E71.51829
G1 X201.74 Y56.903 E71.54871
G1 X201.621 Y57.808 E71.57907
G1 X201.74 Y58.713 E71.60943
G1 X202.09 Y59.558 E71.63985
G0 F3600 X201.975 Y57.808
G0 X202.082 Y56.995
G0 X202.397 Y56.236
G0 X202.896 Y55.584
G0 X213.97 Y49.921
G1 F1800 X215.563 Y51.514 E71.71478
G0 F3600 X215.741 Y52.258
G1 F1800 X213.224 Y49.741 E71.83318
G0 F3600 X212.614 Y49.697
G1 F1800 X215.786 Y52.868 E71.98235
G0 F3600 X215.786 Y53.434
G1 F1800 X212.049 Y49.697 E72.15813
G0 F3600 X211.483 Y49.697
G1 F1800 X215.786 Y54 E72.36053
G0 F3600 X215.786 Y54.566
G1 F1800 X210.917 Y49.697 E72.58955
G0 F3600 X210.352 Y49.697
G1 F1800 X215.786 Y55.131 E72.84515
G0 F3600 X215.786 Y55.697
G1 F1800 X209.786 Y49.697 E73.12737
G0 F3600 X209.22 Y49.697
G1 F1800 X215.786 Y56.263 E73.43622
G0 F3600 X215.786 Y56.828
G1 F1800 X208.655 Y49.697 E73.77164
G0 F3600 X208.089 Y49.697
G1 F1800 X215.786 Y57.394 E74.13368
G0 F3600 X215.786 Y57.96
G1 F1800 X207.523 Y49.697 E74.52235
G0 F3600 X206.958 Y49.697
G1 F1800 X215.786 Y58.525 E74.93759
G0 F3600 X215.786 Y59.091
G1 F1800 X206.392 Y49.697 E75.37945
G0 F3600 X205.826 Y49.697
G1 F1800 X215.786 Y59.657 E75.84794
G0 F3600 X215.786 Y60.222
G1 F1800 X205.261 Y49.697 E76.34301
G0 F3600 X204.695 Y49.697
G1 F1800 X215.786 Y60.788 E76.86469
G0 F3600 X215.786 Y61.354
G1 F1800 X204.129 Y49.697 E77.413
G0 F3600 X203.564 Y49.697
G1 F1800 X215.786 Y61.919 E77.98789
G0 F3600 X215.786 Y62.485
G1 F1800 X202.998 Y49.697 E78.5894
G0 F3600 X202.432 Y49.697
G1 F1800 X215.786 Y63.051 E79.21753
G0 F3600 X215.786 Y63.616
G1 F1800 X208.427 Y56.258 E79.56365
G1 X208.357 Y56.188
G0 F3600 X208.706 Y57.103
G1 F1800 X215.786 Y64.182 E79.89665
G0 F3600 X215.786 Y64.748
G1 F1800 X208.793 Y57.755 E80.22558
G0 F3600 X208.739 Y58.267
G1 F1800 X215.786 Y65.314 E80.55704
G0 F3600 X215.786 Y65.879
G1 F1800 X208.672 Y58.765 E80.89167
G0 F3600 X208.506 Y59.165
G1 F1800 X215.786 Y66.445 E81.23409
G0 F3600 X215.786 Y67.011
G1 F1800 X208.341 Y59.565 E81.58431
G0 F3600 X208.112 Y59.902
G1 F1800 X215.786 Y67.576 E81.94527
G0 F3600 X215.786 Y68.142
G1 F1800 X207.866 Y60.222 E82.3178
G0 F3600 X207.591 Y60.513
G1 F1800 X215.786 Y68.708 E82.70327
G0 F3600 X215.786 Y69.273
G1 F1800 X207.27 Y60.758 E83.10381
G0 F3600 X206.948 Y61.001
G1 F1800 X215.786 Y69.839 E83.51953
G0 F3600 X215.786 Y70.405
G1 F1800 X206.548 Y61.166 E83.95408
G0 F3600 X206.147 Y61.332
G1 F1800 X215.786 Y70.97 E84.40744
G0 F3600 X215.786 Y71.536
G1 F1800 X205.666 Y61.417 E84.88343
G0 F3600 X205.167 Y61.483
G1 F1800 X215.786 Y72.102 E85.38292
G0 F3600 X215.786 Y72.667
G1 F1800 X204.53 Y61.412 E85.91234
G1 X204.46 Y61.342
G0 F3600 X203.74 Y61.188
G1 F1800 X215.786 Y73.233 E86.47892
G0 F3600 X215.786 Y73.799
G1 F1800 X191.685 Y49.698 E87.61256
G0 F3600 X191.119 Y49.698
G1 F1800 X215.786 Y74.365 E88.77282
G0 F3600 X215.786 Y74.93
G1 F1800 X190.553 Y49.698 E89.95968
G0 F3600 X189.988 Y49.698
G1 F1800 X215.786 Y75.496 E91.17314
G0 F3600 X215.786 Y76.062
G1 F1800 X189.422 Y49.698 E92.41322
G0 F3600 X188.856 Y49.698
G1 F1800 X215.786 Y76.627 E93.6799
G0 F3600 X215.786 Y77.193
G1 F1800 X188.291 Y49.698 E94.97318
G0 F3600 X187.725 Y49.698
G1 F1800 X215.786 Y77.759 E96.29309
G0 F3600 X215.786 Y78.324
G1 F1800 X187.159 Y49.698 E97.63959
G0 F3600 X186.594 Y49.698
G1 F1800 X215.786 Y78.89 E99.01269
G0 F3600 X215.786 Y79.456
G1 F1800 X186.028 Y49.698 E100.41242
G0 F3600 X185.462 Y49.698
G1 F1800 X215.786 Y80.021 E101.83874
G0 F3600 X215.786 Y80.587
G1 F1800 X184.897 Y49.698 E103.29167
G0 F3600 X184.331 Y49.698
G1 F1800 X215.786 Y81.153 E104.77121
G0 F3600 X215.786 Y81.718
G1 F1800 X183.765 Y49.698 E106.27736
G0 F3600 X183.2 Y49.698
G1 F1800 X215.786 Y82.284 E107.8101
G0 F3600 X215.786 Y82.85
G1 F1800 X182.634 Y49.698 E109.36947
G0 F3600 X182.068 Y49.698
G1 F1800 X215.786 Y83.415 E110.95544
G0 F3600 X215.786 Y83.981
G1 F1800 X181.502 Y49.698 E112.56803
G0 F3600 X180.937 Y49.698
G1 F1800 X215.786 Y84.547 E114.20722
G0 F3600 X215.786 Y85.113
G1 F1800 X180.371 Y49.698 E115.87303
G0 F3600 X179.805 Y49.698
G1 F1800 X215.786 Y85.678 E117.56545
G0 F3600 X215.786 Y86.244
G1 F1800 X179.24 Y49.698 E119.28446
G0 F3600 X178.674 Y49.698
G1 F1800 X215.786 Y86.81 E121.03009
G0 F3600 X215.786 Y87.375
G1 F1800 X178.108 Y49.698 E122.80233
G0 F3600 X177.543 Y49.698
G1 F1800 X215.786 Y87.941 E124.60116
G0 F3600 X215.786 Y88.507
G1 F1800 X176.977 Y49.698 E126.42662
G0 F3600 X176.411 Y49.698
G1 F1800 X215.786 Y89.072 E128.27867
G0 F3600 X215.786 Y89.638
G1 F1800 X175.846 Y49.698 E130.15733
G0 F3600 X175.28 Y49.698
G1 F1800 X215.786 Y90.204 E132.06261
G0 F3600 X215.786 Y90.769
G1 F1800 X174.714 Y49.698 E133.99448
G0 F3600 X174.149 Y49.698
G1 F1800 X215.786 Y91.335 E135.95296
G0 F3600 X215.786 Y91.901
G1 F1800 X173.583 Y49.698 E137.93806
G0 F3600 X173.017 Y49.698
G1 F1800 X215.786 Y92.466 E139.94976
G0 F3600 X215.786 Y93.032
G1 F1800 X172.452 Y49.698 E141.98806
G0 F3600 X171.886 Y49.698
G1 F1800 X215.786 Y93.598 E144.05298
G0 F3600 X215.786 Y94.163
G1 F1800 X171.32 Y49.698 E146.1445
G0 F3600 X170.754 Y49.698
G1 F1800 X215.786 Y94.729 E148.26264
G0 F3600 X215.786 Y95.295
G1 F1800 X170.189 Y49.698 E150.40739
G0 F3600 X169.623 Y49.698
G1 F1800 X215.786 Y95.861 E152.57875
G0 F3600 X215.786 Y96.426
G1 F1800 X169.057 Y49.698 E154.77672
G0 F3600 X168.492 Y49.698
G1 F1800 X215.786 Y96.992 E157.00128
G0 F3600 X215.786 Y97.558
G1 F1800 X167.926 Y49.698 E159.25247
G0 F3600 X167.36 Y49.698
