;FLAVOR:Marlin
;TIME:6352
;Filament used: 5.02565m
;Layer height: 0.2
;MINX:56.23
;MINY:68.924
;MINZ:0.2
;MAXX:178.77
;MAXY:166.076
;MAXZ:11.8
;Generated with Cura_SteamEngine 4.1.0
M140 S60
M105
M190 S60
M104 S200
M105
M109 S200
M82 ;absolute extrusion mode
; Ender 3 Custom Start G-code
G28 ; Home all axes
G92 E0 ; Reset Extruder
G1 Z2.0 F3000 ; Move Z Axis up little to prevent scratching of Heat Bed
G1 X0.1 Y20 Z0.3 F5000.0 ; Move to start position
G1 X0.1 Y200.0 Z0.3 F1500.0 E15 ; Draw the first line
G1 X0.4 Y200.0 Z0.3 F5000.0 ; Move to side a little
G1 X0.4 Y20 Z0.3 F1500.0 E30 ; Draw the second line
G92 E0 ; Reset Extruder
G1 Z2.0 F3000 ; Move Z Axis up little to prevent scratching of Heat Bed
; End of custom start GCode
G92 E0
G92 E0
G1 F2400 E-5
;LAYER_COUNT:59
;LAYER:0
M107
M204 S500
M205 X10 Y10
;MESH:VCU_Housing_Middle_V1.stl
G0 F3600 X62.739 Y76.571 Z0.2
;TYPE:WALL-INNER
G1 F2400 E0
G1 F1800 X62.43 Y77.321 E0.02698
G1 X62.325 Y78.124 E0.05391
G1 X62.43 Y78.927 E0.08085
G1 X62.739 Y79.677 E0.10783
G1 X63.234 Y80.32 E0.13482
G1 X63.877 Y80.813 E0.16177
G1 X64.626 Y81.124 E0.18874
G1 X65.43 Y81.229 E0.21571
G1 X66.233 Y81.124 E0.24264
G1 X66.983 Y80.813 E0.26965
G1 X67.625 Y80.32 E0.29657
G1 X68.12 Y79.677 E0.32356
G1 X68.429 Y78.927 E0.35054
G1 X68.536 Y78.124 E0.37748
G1 X68.429 Y77.321 E0.40443
G1 X68.12 Y76.571 E0.43141
G1 X67.625 Y75.928 E0.4584
G1 X66.983 Y75.435 E0.48532
G1 X66.233 Y75.124 E0.51232
G1 X65.43 Y75.019 E0.53926
G1 X64.626 Y75.124 E0.56623
G1 X63.877 Y75.435 E0.5932
G1 X63.234 Y75.928 E0.62015
G1 X62.739 Y76.571 E0.64714
G0 F3600 X62.653 Y76.522
G0 X59.359 Y82.054
G0 X59.429 Y82.124
G1 F1800 X59.429 Y152.876 E3.00036
G1 X67.921 Y152.876 E3.28281
G1 X68.392 Y152.93 E3.29857
G1 X68.728 Y153.069 E3.31067
G1 X69.016 Y153.29 E3.32274
G1 X69.238 Y153.579 E3.33486
G1 X69.377 Y153.915 E3.34696
G1 X69.43 Y154.316 E3.36041
G1 X69.43 Y162.876 E3.64512
G1 X165.57 Y162.876 E6.84275
G1 X165.57 Y154.385 E7.12516
G1 X165.625 Y153.91 E7.14106
G1 X165.762 Y153.58 E7.15295
G1 X165.984 Y153.29 E7.16509
G1 X166.272 Y153.069 E7.17717
G1 X166.612 Y152.928 E7.18941
G1 X167.01 Y152.876 E7.20276
G1 X175.371 Y152.876 E7.48085
G1 X175.571 Y152.876 E7.4875
G1 X175.571 Y152.676 E7.49181
G1 X175.57 Y82.931 E9.81154
G1 X175.571 Y82.324 E9.83172
G1 X175.571 Y82.124 E9.83838
G1 X175.371 Y82.124 E9.84268
G1 X167.079 Y82.124 E10.11848
G1 X166.608 Y82.07 E10.13425
G1 X166.272 Y81.931 E10.14634
G1 X165.984 Y81.71 E10.15841
G1 X165.762 Y81.421 E10.17053
G1 X165.623 Y81.085 E10.18263
G1 X165.57 Y80.684 E10.19608
G1 X165.57 Y72.124 E10.48079
G1 X69.43 Y72.124 E13.67842
G1 X69.43 Y80.615 E13.96083
G1 X69.375 Y81.09 E13.97673
G1 X69.238 Y81.42 E13.98862
G1 X69.016 Y81.71 E14.00076
G1 X68.728 Y81.931 E14.01284
G1 X68.388 Y82.072 E14.02508
G1 X67.99 Y82.124 E14.03843
G1 X59.429 Y82.124 E14.32317
G0 F3600 X59.359 Y82.054
G0 X59.401 Y152.904
G0 X62.653 Y155.274
G0 X62.739 Y155.323
G1 F1800 X62.43 Y156.073 E14.35015
G1 X62.325 Y156.876 E14.37709
G1 X62.43 Y157.679 E14.40402
G1 X62.739 Y158.429 E14.431
G1 X63.234 Y159.072 E14.45799
G1 X63.877 Y159.565 E14.48494
G1 X64.626 Y159.876 E14.51191
G1 X65.43 Y159.981 E14.53888
G1 X66.233 Y159.876 E14.56582
G1 X66.983 Y159.565 E14.59282
G1 X67.625 Y159.072 E14.61974
G1 X68.12 Y158.429 E14.64673
G1 X68.429 Y157.679 E14.67371
G1 X68.536 Y156.876 E14.70066
G1 X68.429 Y156.073 E14.7276
G1 X68.12 Y155.323 E14.75458
G1 X67.625 Y154.68 E14.78157
G1 X66.983 Y154.187 E14.80849
G1 X66.233 Y153.876 E14.8355
G1 X65.43 Y153.771 E14.86243
G1 X64.626 Y153.876 E14.8894
G1 X63.877 Y154.187 E14.91637
G1 X63.234 Y154.68 E14.94332
G1 X62.739 Y155.323 E14.97031
G0 F3600 X62.653 Y155.274
G0 X63.206 Y154.652
G0 X63.857 Y154.153
G0 X64.616 Y153.838
G0 X65.43 Y153.731
G0 X66.243 Y153.838
G0 X69.39 Y155.274
G0 X69.402 Y162.904
G0 X165.598 Y162.904
G0 X165.604 Y158.578
G0 X166.794 Y155.274
G0 X166.88 Y155.323
G1 F1800 X166.571 Y156.073 E14.99729
G1 X166.466 Y156.876 E15.02423
G1 X166.571 Y157.679 E15.05116
G1 X166.88 Y158.429 E15.07814
G1 X167.375 Y159.072 E15.10513
G1 X168.018 Y159.565 E15.13208
G1 X168.768 Y159.876 E15.15908
G1 X169.571 Y159.981 E15.18602
G1 X170.374 Y159.876 E15.21295
G1 X171.124 Y159.565 E15.23996
G1 X171.766 Y159.072 E15.26688
G1 X172.261 Y158.429 E15.29387
G1 X172.57 Y157.679 E15.32085
G1 X172.677 Y156.876 E15.34779
G1 X172.57 Y156.073 E15.37474
G1 X172.261 Y155.323 E15.40172
G1 X171.766 Y154.68 E15.42871
G1 X171.124 Y154.187 E15.45563
G1 X170.374 Y153.876 E15.48263
G1 X169.571 Y153.771 E15.50957
G1 X168.768 Y153.876 E15.5365
G1 X168.018 Y154.187 E15.56351
G1 X167.375 Y154.68 E15.59046
G1 X166.88 Y155.323 E15.61745
G0 F3600 X166.794 Y155.274
G0 X167.012 Y152.915
G0 X175.599 Y152.904
G0 X175.599 Y82.096
G0 X166.794 Y82.052
G0 X166.426 Y78.124
G0 X166.794 Y76.522
G0 X166.88 Y76.571
G1 F1800 X166.571 Y77.321 E15.64443
G1 X166.466 Y78.124 E15.67136
G1 X166.571 Y78.927 E15.6983
G1 X166.88 Y79.677 E15.72528
G1 X167.375 Y80.32 E15.75227
G1 X168.018 Y80.813 E15.77921
G1 X168.768 Y81.124 E15.80622
G1 X169.571 Y81.229 E15.83315
G1 X170.374 Y81.124 E15.86009
G1 X171.124 Y80.813 E15.88709
G1 X171.766 Y80.32 E15.91402
G1 X172.261 Y79.677 E15.94101
G1 X172.57 Y78.927 E15.96799
G1 X172.677 Y78.124 E15.99493
G1 X172.57 Y77.321 E16.02187
G1 X172.261 Y76.571 E16.04885
G1 X171.766 Y75.928 E16.07584
G1 X171.124 Y75.435 E16.10277
G1 X170.374 Y75.124 E16.12977
G1 X169.571 Y75.019 E16.1567
G1 X168.768 Y75.124 E16.18364
G1 X168.018 Y75.435 E16.21064
G1 X167.375 Y75.928 E16.23759
G1 X166.88 Y76.571 E16.26458
G0 F3600 X166.794 Y76.522
G0 X167.347 Y75.9
G0 X177.619 Y69.602
G0 X177.668 Y69.516
G1 F1800 X177.956 Y69.737 E16.27666
G1 X178.179 Y70.027 E16.28882
G1 X178.318 Y70.363 E16.30092
G1 X178.37 Y70.764 E16.31437
G1 X178.37 Y164.236 E19.42326
G1 X178.318 Y164.637 E19.43671
G1 X178.179 Y164.973 E19.4488
G1 X177.956 Y165.263 E19.46097
G1 X177.668 Y165.484 E19.47304
G1 X177.332 Y165.623 E19.48514
G1 X176.93 Y165.676 E19.49862
G1 X58.07 Y165.676 E23.45192
G1 X57.668 Y165.623 E23.46541
G1 X57.332 Y165.484 E23.4775
G1 X57.044 Y165.263 E23.48958
G1 X56.821 Y164.973 E23.50175
G1 X56.682 Y164.637 E23.51384
G1 X56.63 Y164.236 E23.52729
G1 X56.63 Y70.764 E26.63618
G1 X56.682 Y70.363 E26.64963
G1 X56.821 Y70.027 E26.66172
G1 X57.044 Y69.737 E26.67389
G1 X57.332 Y69.516 E26.68596
G1 X57.668 Y69.377 E26.69806
G1 X58.07 Y69.324 E26.71154
G1 X176.93 Y69.324 E30.66484
G1 X177.332 Y69.377 E30.67833
G1 X177.668 Y69.516 E30.69042
G0 F3600 X177.869 Y69.167
;TYPE:WALL-OUTER
G1 F1800 X178.242 Y69.453 E30.70606
G1 X178.529 Y69.826 E30.72171
G1 X178.708 Y70.259 E30.73729
G1 X178.77 Y70.735 E30.75326
G1 X178.77 Y164.265 E33.86408
G1 X178.708 Y164.741 E33.88005
G1 X178.529 Y165.174 E33.89563
G1 X178.242 Y165.547 E33.91128
G1 X177.869 Y165.833 E33.92692
G1 X177.433 Y166.014 E33.94262
G1 X176.959 Y166.076 E33.95852
G1 X58.041 Y166.076 E37.91375
G1 X57.567 Y166.014 E37.92965
G1 X57.131 Y165.833 E37.94535
G1 X56.758 Y165.547 E37.96098
G1 X56.471 Y165.174 E37.97663
G1 X56.292 Y164.741 E37.99222
G1 X56.23 Y164.265 E38.00818
G1 X56.23 Y70.735 E41.119
G1 X56.292 Y70.259 E41.13497
G1 X56.471 Y69.826 E41.15055
G1 X56.758 Y69.453 E41.16621
G1 X57.131 Y69.167 E41.18184
G1 X57.567 Y68.986 E41.19754
G1 X58.041 Y68.924 E41.21344
G1 X176.959 Y68.924 E45.16867
G1 X177.433 Y68.986 E45.18457
G1 X177.869 Y69.167 E45.20027
G0 F3600 X178.027 Y69.288
G0 X177.723 Y69.683
G0 X172.768 Y78.191
G0 X172.273 Y78.124
G1 F1800 X172.18 Y77.425 E45.22372
G1 X171.911 Y76.773 E45.24718
G1 X171.481 Y76.213 E45.27067
G1 X170.922 Y75.784 E45.2941
G1 X170.27 Y75.514 E45.31757
G1 X169.571 Y75.422 E45.34102
G1 X168.872 Y75.514 E45.36447
G1 X168.22 Y75.784 E45.38794
G1 X167.66 Y76.213 E45.41141
G1 X167.23 Y76.773 E45.43489
G1 X166.961 Y77.425 E45.45835
G1 X166.869 Y78.124 E45.4818
G1 X166.961 Y78.823 E45.50525
G1 X167.23 Y79.475 E45.52871
G1 X167.66 Y80.035 E45.55219
G1 X168.22 Y80.464 E45.57565
G1 X168.872 Y80.734 E45.59912
G1 X169.571 Y80.826 E45.62257
G1 X170.27 Y80.734 E45.64602
G1 X170.922 Y80.464 E45.66949
G1 X171.481 Y80.035 E45.69293
G1 X171.911 Y79.475 E45.71641
G1 X172.18 Y78.823 E45.73987
G1 X172.273 Y78.124 E45.76333
G0 F3600 X172.247 Y77.926
G0 X172.743 Y77.861
G0 X175.599 Y82.096
G0 X175.599 Y152.904
G0 X172.768 Y156.943
G0 X172.273 Y156.876
G1 F1800 X172.18 Y156.177 E45.78678
G1 X171.911 Y155.525 E45.81024
G1 X171.481 Y154.965 E45.83372
G1 X170.922 Y154.536 E45.85716
G1 X170.27 Y154.266 E45.88063
G1 X169.571 Y154.174 E45.90408
G1 X168.872 Y154.266 E45.92753
G1 X168.22 Y154.536 E45.951
G1 X167.66 Y154.965 E45.97446
G1 X167.23 Y155.525 E45.99795
G1 X166.961 Y156.177 E46.0214
G1 X166.869 Y156.876 E46.04485
G1 X166.961 Y157.575 E46.0683
G1 X167.23 Y158.227 E46.09176
G1 X167.66 Y158.787 E46.11524
G1 X168.22 Y159.216 E46.13871
G1 X168.872 Y159.486 E46.16218
G1 X169.571 Y159.578 E46.18563
G1 X170.27 Y159.486 E46.20908
G1 X170.922 Y159.216 E46.23255
G1 X171.481 Y158.787 E46.25599
G1 X171.911 Y158.227 E46.27947
G1 X172.18 Y157.575 E46.30293
G1 X172.273 Y156.876 E46.32638
G0 F3600 X172.247 Y156.678
G0 X172.743 Y156.613
G0 X172.295 Y155.304
G0 X171.794 Y154.652
G0 X171.144 Y154.153
G0 X170.384 Y153.838
G0 X169.571 Y153.731
G0 X168.758 Y153.838
G0 X167.999 Y154.153
G0 X167.347 Y154.652
G0 X165.608 Y156.634
G0 X165.598 Y162.904
G0 X69.402 Y162.904
G0 X68.627 Y156.943
G0 X68.132 Y156.876
G1 F1800 X68.039 Y156.177 E46.34984
G1 X67.77 Y155.525 E46.37329
G1 X67.34 Y154.965 E46.39678
G1 X66.781 Y154.536 E46.42021
G1 X66.129 Y154.266 E46.44369
G1 X65.43 Y154.174 E46.46713
G1 X64.73 Y154.266 E46.49062
G1 X64.079 Y154.536 E46.51406
G1 X63.519 Y154.965 E46.53752
G1 X63.089 Y155.525 E46.561
G1 X62.82 Y156.177 E46.58446
G1 X62.728 Y156.876 E46.60791
G1 X62.82 Y157.575 E46.63136
G1 X63.089 Y158.227 E46.65482
G1 X63.519 Y158.787 E46.6783
G1 X64.079 Y159.216 E46.70177
G1 X64.73 Y159.486 E46.72521
G1 X65.43 Y159.578 E46.74869
G1 X66.129 Y159.486 E46.77214
G1 X66.781 Y159.216 E46.79561
G1 X67.34 Y158.787 E46.81905
G1 X67.77 Y158.227 E46.84253
G1 X68.039 Y157.575 E46.86599
G1 X68.132 Y156.876 E46.88944
G0 F3600 X68.106 Y156.678
G0 X68.602 Y156.613
G0 X67.919 Y152.915
G0 X59.401 Y152.904
G0 X59.329 Y82.524
G0 X59.829 Y82.524
G1 F1800 X59.829 Y152.476 E49.21606
G1 X67.941 Y152.476 E49.48586
G1 X68.496 Y152.54 E49.50444
G1 X68.929 Y152.719 E49.52003
G1 X69.301 Y153.005 E49.53563
G1 X69.588 Y153.378 E49.55129
G1 X69.767 Y153.811 E49.56687
G1 X69.83 Y154.287 E49.58284
G1 X69.83 Y162.476 E49.85521
G1 X165.17 Y162.476 E53.02623
G1 X165.17 Y154.365 E53.296
G1 X165.235 Y153.808 E53.31465
G1 X165.412 Y153.378 E53.33012
G1 X165.699 Y153.005 E53.34577
G1 X166.071 Y152.719 E53.36138
G1 X166.508 Y152.538 E53.37711
G1 X166.981 Y152.476 E53.39298
G1 X174.971 Y152.476 E53.65873
G1 X175.171 Y152.476 E53.66538
G1 X175.171 Y152.276 E53.66969
G1 X175.17 Y82.931 E55.97611
G1 X175.171 Y82.724 E55.983
G1 X175.171 Y82.524 E55.98965
G1 X174.971 Y82.524 E55.99395
G1 X167.059 Y82.524 E56.25711
G1 X166.504 Y82.46 E56.27569
G1 X166.071 Y82.281 E56.29127
G1 X165.699 Y81.995 E56.30688
G1 X165.412 Y81.622 E56.32253
G1 X165.233 Y81.189 E56.33812
G1 X165.17 Y80.713 E56.35409
G1 X165.17 Y72.524 E56.62646
G1 X69.83 Y72.524 E59.79748
G1 X69.83 Y80.635 E60.06725
G1 X69.765 Y81.192 E60.0859
G1 X69.588 Y81.622 E60.10137
G1 X69.301 Y81.995 E60.11702
G1 X68.929 Y82.281 E60.13263
G1 X68.492 Y82.462 E60.14836
G1 X68.019 Y82.524 E60.16423
G1 X59.829 Y82.524 E60.43663
G0 F3600 X59.829 Y82.724
G0 X59.329 Y82.724
G0 X66.243 Y81.162
G0 X67.003 Y80.847
G0 X67.653 Y80.348
G0 X68.154 Y79.696
G0 X68.627 Y78.191
G0 X68.132 Y78.124
G1 F1800 X68.039 Y77.425 E60.46008
G1 X67.77 Y76.773 E60.48354
G1 X67.34 Y76.213 E60.50702
G1 X66.781 Y75.784 E60.53046
G1 X66.129 Y75.514 E60.55393
G1 X65.43 Y75.422 E60.57738
G1 X64.73 Y75.514 E60.60086
G1 X64.079 Y75.784 E60.6243
G1 X63.519 Y76.213 E60.64777
G1 X63.089 Y76.773 E60.67125
G1 X62.82 Y77.425 E60.69471
G1 X62.728 Y78.124 E60.71816
G1 X62.82 Y78.823 E60.74161
G1 X63.089 Y79.475 E60.76506
G1 X63.519 Y80.035 E60.78855
G1 X64.079 Y80.464 E60.81201
G1 X64.73 Y80.734 E60.83545
G1 X65.43 Y80.826 E60.85893
G1 X66.129 Y80.734 E60.88238
G1 X66.781 Y80.464 E60.90585
G1 X67.34 Y80.035 E60.92929
G1 X67.77 Y79.475 E60.95277
G1 X68.039 Y78.823 E60.97623
G1 X68.132 Y78.124 E60.99969
G0 F3600 X68.106 Y77.926
G0 X68.93 Y78.124
;TYPE:SKIN
G1 F1800 X68.809 Y77.219 E61.03006
G1 X68.461 Y76.374 E61.06045
G1 X67.903 Y75.649 E61.09088
G1 X67.18 Y75.094 E61.12119
G1 X66.335 Y74.744 E61.15161
G1 X65.43 Y74.625 E61.18197
G1 X64.524 Y74.744 E61.21237
G1 X63.68 Y75.094 E61.24276
G1 X62.957 Y75.649 E61.27307
G1 X62.398 Y76.374 E61.30352
G1 X62.05 Y77.22 E61.33395
G1 X61.931 Y78.124 E61.36427
G1 X62.05 Y79.028 E61.3946
G1 X62.398 Y79.874 E61.42502
G1 X62.957 Y80.599 E61.45547
G1 X63.68 Y81.154 E61.48579
G1 X64.524 Y81.504 E61.51618
G1 X65.43 Y81.623 E61.54657
G1 X66.335 Y81.504 E61.57693
G1 X67.18 Y81.154 E61.60735
G1 X67.903 Y80.599 E61.63767
G1 X68.461 Y79.874 E61.66809
G1 X68.809 Y79.029 E61.69849
G1 X68.93 Y78.124 E61.72886
G0 F3600 X69.04 Y80.588
G1 F1800 X68.993 Y80.99 E61.74232
G1 X68.896 Y81.223 E61.75071
G1 X68.737 Y81.431 E61.75942
G1 X68.528 Y81.592 E61.7682
G1 X68.283 Y81.693 E61.77701
G1 X67.97 Y81.734 E61.78751
G1 X59.039 Y81.734 E62.08456
G1 X59.039 Y153.266 E64.46372
G1 X67.894 Y153.266 E64.75824
G1 X68.294 Y153.312 E64.77163
G1 X68.529 Y153.409 E64.78009
G1 X68.737 Y153.569 E64.78881
G1 X68.897 Y153.777 E64.79754
G1 X68.999 Y154.021 E64.80634
G1 X69.04 Y154.337 E64.81694
G1 X69.04 Y163.266 E65.11392
G1 X165.96 Y163.266 E68.33749
G1 X165.96 Y154.412 E68.63197
G1 X166.007 Y154.01 E68.64544
G1 X166.104 Y153.777 E68.65383
G1 X166.263 Y153.569 E68.66254
G1 X166.472 Y153.408 E68.67131
G1 X166.717 Y153.307 E68.68013
G1 X167.03 Y153.266 E68.69063
G1 X175.961 Y153.266 E68.98767
G1 X175.96 Y82.931 E71.32702
G1 X175.961 Y81.734 E71.36684
G1 X167.106 Y81.734 E71.66135
G1 X166.706 Y81.688 E71.67475
G1 X166.471 Y81.591 E71.6832
G1 X166.263 Y81.431 E71.69193
G1 X166.103 Y81.223 E71.70066
G1 X166.001 Y80.979 E71.70945
G1 X165.96 Y80.663 E71.72005
G1 X165.96 Y71.734 E72.01703
G1 X69.04 Y71.734 E75.2406
G1 X69.04 Y80.588 E75.53509
G0 F3600 X68.467 Y77.311
G0 X68.154 Y76.552
G0 X67.653 Y75.9
G0 X58.091 Y69.714
G1 F1800 X176.909 Y69.714 E79.48699
G1 X177.226 Y69.755 E79.49762
G1 X177.47 Y69.857 E79.50642
G1 X177.68 Y70.018 E79.51522
G1 X177.837 Y70.222 E79.52378
G1 X177.94 Y70.469 E79.53268
G1 X177.98 Y70.783 E79.54321
G1 X177.98 Y164.217 E82.65084
G1 X177.94 Y164.531 E82.66137
G1 X177.837 Y164.778 E82.67027
G1 X177.68 Y164.982 E82.67883
G1 X177.47 Y165.143 E82.68763
G1 X177.226 Y165.245 E82.69643
G1 X176.909 Y165.286 E82.70706
G1 X58.091 Y165.286 E86.65896
G1 X57.774 Y165.245 E86.66959
G1 X57.53 Y165.143 E86.67839
G1 X57.32 Y164.982 E86.68719
G1 X57.163 Y164.778 E86.69575
G1 X57.06 Y164.531 E86.70465
G1 X57.02 Y164.217 E86.71518
G1 X57.02 Y70.783 E89.82281
G1 X57.06 Y70.469 E89.83334
G1 X57.163 Y70.222 E89.84224
G1 X57.32 Y70.018 E89.8508
G1 X57.53 Y69.857 E89.8596
G1 X57.774 Y69.755 E89.8684
G1 X58.091 Y69.714 E89.87903
G0 F3600 X59.401 Y152.904
G0 X65.43 Y153.377
G1 F1800 X64.524 Y153.496 E89.90942
G1 X63.68 Y153.846 E89.93981
G1 X62.957 Y154.401 E89.97012
G1 X62.398 Y155.126 E90.00057
G1 X62.05 Y155.972 E90.031
G1 X61.931 Y156.876 E90.06133
G1 X62.05 Y157.78 E90.09165
G1 X62.398 Y158.626 E90.12208
G1 X62.957 Y159.351 E90.15253
G1 X63.68 Y159.906 E90.18284
G1 X64.524 Y160.256 E90.21323
G1 X65.43 Y160.375 E90.24362
G1 X66.335 Y160.256 E90.27398
G1 X67.18 Y159.906 E90.3044
G1 X67.903 Y159.351 E90.33472
G1 X68.461 Y158.626 E90.36515
G1 X68.809 Y157.781 E90.39554
G1 X68.93 Y156.876 E90.42591
G1 X68.809 Y155.971 E90.45628
G1 X68.461 Y155.126 E90.48667
G1 X67.903 Y154.401 E90.5171
G1 X67.18 Y153.846 E90.54742
G1 X66.335 Y153.496 E90.57784
G1 X65.43 Y153.377 E90.6082
G0 F3600 X69.391 Y154.318
G0 X69.402 Y162.904
G0 X165.598 Y162.904
G0 X165.604 Y158.074
G0 X167.098 Y154.401
G1 F1800 X166.539 Y155.126 E90.63865
G1 X166.191 Y155.972 E90.66907
G1 X166.072 Y156.876 E90.6994
G1 X166.191 Y157.78 E90.72973
G1 X166.539 Y158.626 E90.76015
