;FLAVOR:Marlin
;TIME:5082
;Filament used: 4.81157m
;Layer height: 0.2
;MINX:60.172
;MINY:73.476
;MINZ:0.2
;MAXX:182.713
;MAXY:170.628
;MAXZ:1
;Generated with Cura_SteamEngine 4.1.0
M140 S60
M105
M190 S60
M104 S200
M105
M109 S200
M82 ;absolute extrusion mode
; Ender 3 Custom Start G-code
G28 ; Home all axes
G92 E0 ; Reset Extruder
G1 Z2.0 F3000 ; Move Z Axis up little to prevent scratching of Heat Bed
G1 X0.1 Y20 Z0.3 F5000.0 ; Move to start position
G1 X0.1 Y200.0 Z0.3 F1500.0 E15 ; Draw the first line
G1 X0.4 Y200.0 Z0.3 F5000.0 ; Move to side a little
G1 X0.4 Y20 Z0.3 F1500.0 E30 ; Draw the second line
G92 E0 ; Reset Extruder
G1 Z2.0 F3000 ; Move Z Axis up little to prevent scratching of Heat Bed
; End of custom start GCode
G92 E0
G92 E0
G1 F2400 E-5
;LAYER_COUNT:5
;LAYER:0
M107
M204 S500
M205 X10 Y10
;MESH:VCU_Housing_Top_V1.stl
G0 F3600 X66.372 Y81.873 Z0.2
;TYPE:WALL-INNER
G1 F2400 E0
G1 F1800 X66.267 Y82.676 E0.02694
G1 X66.372 Y83.479 E0.05387
G1 X66.683 Y84.229 E0.08088
G1 X67.176 Y84.872 E0.10782
G1 X67.819 Y85.365 E0.13477
G1 X68.569 Y85.676 E0.16178
G1 X69.372 Y85.781 E0.18871
G1 X70.175 Y85.676 E0.21565
G1 X70.925 Y85.365 E0.24265
G1 X71.568 Y84.872 E0.2696
G1 X72.061 Y84.229 E0.29655
G1 X72.372 Y83.479 E0.32356
G1 X72.477 Y82.676 E0.35049
G1 X72.372 Y81.873 E0.37743
G1 X72.061 Y81.123 E0.40443
G1 X71.568 Y80.48 E0.43138
G1 X70.925 Y79.987 E0.45833
G1 X70.175 Y79.676 E0.48533
G1 X69.372 Y79.571 E0.51227
G1 X68.569 Y79.676 E0.5392
G1 X67.819 Y79.987 E0.56621
G1 X67.176 Y80.48 E0.59316
G1 X66.683 Y81.123 E0.62011
G1 X66.372 Y81.873 E0.64711
G0 F3600 X66.276 Y81.848
G0 X66.276 Y160.6
G0 X66.372 Y160.625
G1 F1800 X66.267 Y161.428 E0.67405
G1 X66.372 Y162.231 E0.70098
G1 X66.683 Y162.981 E0.72799
G1 X67.176 Y163.624 E0.75493
G1 X67.819 Y164.117 E0.78188
G1 X68.569 Y164.428 E0.80889
G1 X69.372 Y164.533 E0.83582
G1 X70.175 Y164.428 E0.86276
G1 X70.925 Y164.117 E0.88976
G1 X71.568 Y163.624 E0.91671
G1 X72.061 Y162.981 E0.94366
G1 X72.372 Y162.231 E0.97067
G1 X72.477 Y161.428 E0.9976
G1 X72.372 Y160.625 E1.02454
G1 X72.061 Y159.875 E1.05154
G1 X71.568 Y159.232 E1.07849
G1 X70.925 Y158.739 E1.10544
G1 X70.175 Y158.428 E1.13244
G1 X69.372 Y158.323 E1.15938
G1 X68.569 Y158.428 E1.18631
G1 X67.819 Y158.739 E1.21332
G1 X67.176 Y159.232 E1.24027
G1 X66.683 Y159.875 E1.26722
G1 X66.372 Y160.625 E1.29422
G0 F3600 X66.276 Y160.6
G0 X66.649 Y159.856
G0 X67.148 Y159.204
G0 X67.8 Y158.705
G0 X68.559 Y158.39
G0 X170.417 Y160.6
G0 X170.513 Y160.625
G1 F1800 X170.408 Y161.428 E1.32116
G1 X170.513 Y162.231 E1.34809
G1 X170.824 Y162.981 E1.3751
G1 X171.317 Y163.624 E1.40205
G1 X171.96 Y164.117 E1.42899
G1 X172.71 Y164.428 E1.456
G1 X173.513 Y164.533 E1.48293
G1 X174.316 Y164.428 E1.50987
G1 X175.066 Y164.117 E1.53687
G1 X175.709 Y163.624 E1.56382
G1 X176.202 Y162.981 E1.59077
G1 X176.513 Y162.231 E1.61778
G1 X176.618 Y161.428 E1.64471
G1 X176.513 Y160.625 E1.67165
G1 X176.202 Y159.875 E1.69865
G1 X175.709 Y159.232 E1.7256
G1 X175.066 Y158.739 E1.75255
G1 X174.316 Y158.428 E1.77955
G1 X173.513 Y158.323 E1.80649
G1 X172.71 Y158.428 E1.83342
G1 X171.96 Y158.739 E1.86043
G1 X171.317 Y159.232 E1.88738
G1 X170.824 Y159.875 E1.91433
G1 X170.513 Y160.625 E1.94133
G0 F3600 X170.417 Y160.6
G0 X164.52 Y110.205
G0 X164.478 Y88.907
G0 X164.548 Y88.977
G1 F1800 X164.548 Y110.177 E2.64645
G1 X182.313 Y110.177 E3.23731
G1 X182.313 Y168.788 E5.18672
G1 X182.26 Y169.19 E5.20021
G1 X182.122 Y169.523 E5.2122
G1 X181.899 Y169.814 E5.22439
G1 X181.608 Y170.037 E5.23659
G1 X181.275 Y170.175 E5.24857
G1 X180.873 Y170.228 E5.26206
G1 X62.012 Y170.228 E9.21539
G1 X61.61 Y170.175 E9.22888
G1 X61.277 Y170.037 E9.24087
G1 X60.986 Y169.814 E9.25306
G1 X60.763 Y169.523 E9.26526
G1 X60.625 Y169.19 E9.27725
G1 X60.572 Y168.788 E9.29073
G1 X60.572 Y75.316 E12.39962
G1 X60.624 Y74.918 E12.41297
G1 X60.765 Y74.578 E12.42522
G1 X60.986 Y74.29 E12.43729
G1 X61.277 Y74.067 E12.44948
G1 X61.61 Y73.929 E12.46147
G1 X62.012 Y73.876 E12.47496
G1 X180.873 Y73.876 E16.42829
G1 X181.275 Y73.929 E16.44178
G1 X181.608 Y74.067 E16.45377
G1 X181.899 Y74.29 E16.46596
G1 X182.12 Y74.578 E16.47804
G1 X182.261 Y74.918 E16.49028
G1 X182.313 Y75.316 E16.50363
G1 X182.313 Y88.977 E16.95799
G1 X164.548 Y88.977 E17.54886
G0 F3600 X164.478 Y88.907
G0 X170.417 Y81.848
G0 X170.513 Y81.873
G1 F1800 X170.408 Y82.676 E17.5758
G1 X170.513 Y83.479 E17.60273
G1 X170.824 Y84.229 E17.62974
G1 X171.317 Y84.872 E17.65669
G1 X171.96 Y85.365 E17.68363
G1 X172.71 Y85.676 E17.71064
G1 X173.513 Y85.781 E17.73757
G1 X174.316 Y85.676 E17.76451
G1 X175.066 Y85.365 E17.79151
G1 X175.709 Y84.872 E17.81846
G1 X176.202 Y84.229 E17.84541
G1 X176.513 Y83.479 E17.87242
G1 X176.618 Y82.676 E17.89935
G1 X176.513 Y81.873 E17.92629
G1 X176.202 Y81.123 E17.95329
G1 X175.709 Y80.48 E17.98024
G1 X175.066 Y79.987 E18.00719
G1 X174.316 Y79.676 E18.03419
G1 X173.513 Y79.571 E18.06113
G1 X172.71 Y79.676 E18.08806
G1 X171.96 Y79.987 E18.11507
G1 X171.317 Y80.48 E18.14202
G1 X170.824 Y81.123 E18.16897
G1 X170.513 Y81.873 E18.19597
G0 F3600 X170.417 Y81.848
G0 X171.207 Y80.461
G0 X171.602 Y80.765
;TYPE:WALL-OUTER
G1 F1800 X171.173 Y81.325 E18.21943
G1 X170.903 Y81.977 E18.24291
G1 X170.811 Y82.676 E18.26636
G1 X170.903 Y83.375 E18.2898
G1 X171.173 Y84.027 E18.31328
G1 X171.602 Y84.587 E18.33674
G1 X172.162 Y85.016 E18.3602
G1 X172.814 Y85.286 E18.38367
G1 X173.513 Y85.378 E18.40712
G1 X174.212 Y85.286 E18.43057
G1 X174.864 Y85.016 E18.45404
G1 X175.424 Y84.587 E18.47751
G1 X175.853 Y84.027 E18.50097
G1 X176.123 Y83.375 E18.52444
G1 X176.215 Y82.676 E18.54789
G1 X176.123 Y81.977 E18.57134
G1 X175.853 Y81.325 E18.59481
G1 X175.424 Y80.765 E18.61827
G1 X174.864 Y80.336 E18.64174
G1 X174.212 Y80.066 E18.66521
G1 X173.513 Y79.974 E18.68866
G1 X172.814 Y80.066 E18.71211
G1 X172.162 Y80.336 E18.73558
G1 X171.602 Y80.765 E18.75904
G0 F3600 X171.481 Y80.923
G0 X171.086 Y80.619
G0 X164.52 Y88.949
G0 X164.948 Y89.377
G1 F1800 X164.948 Y109.777 E19.43755
G1 X182.713 Y109.777 E20.02841
G1 X182.713 Y168.817 E21.99209
G1 X182.651 Y169.291 E22.00799
G1 X182.47 Y169.727 E22.02369
G1 X182.184 Y170.099 E22.0393
G1 X181.812 Y170.385 E22.05491
G1 X181.376 Y170.566 E22.07061
G1 X180.902 Y170.628 E22.08651
G1 X61.983 Y170.628 E26.04177
G1 X61.509 Y170.566 E26.05767
G1 X61.073 Y170.385 E26.07337
G1 X60.701 Y170.099 E26.08898
G1 X60.415 Y169.727 E26.10458
G1 X60.234 Y169.291 E26.12029
G1 X60.172 Y168.817 E26.13619
G1 X60.172 Y75.287 E29.24701
G1 X60.234 Y74.814 E29.26287
G1 X60.415 Y74.377 E29.2786
G1 X60.701 Y74.005 E29.29421
G1 X61.073 Y73.719 E29.30982
G1 X61.509 Y73.538 E29.32552
G1 X61.983 Y73.476 E29.34142
G1 X180.902 Y73.476 E33.29668
G1 X181.376 Y73.538 E33.31258
G1 X181.812 Y73.719 E33.32828
G1 X182.184 Y74.005 E33.34389
G1 X182.47 Y74.377 E33.3595
G1 X182.651 Y74.814 E33.37523
G1 X182.713 Y75.287 E33.39109
G1 X182.713 Y89.377 E33.85973
G1 X164.948 Y89.377 E34.4506
G0 F3600 X164.948 Y89.577
G0 X164.448 Y89.577
G0 X164.52 Y110.205
G0 X171.207 Y159.213
G0 X171.602 Y159.517
G1 F1800 X171.173 Y160.077 E34.47406
G1 X170.903 Y160.729 E34.49753
G1 X170.811 Y161.428 E34.52098
G1 X170.903 Y162.127 E34.54443
G1 X171.173 Y162.779 E34.5679
G1 X171.602 Y163.339 E34.59136
G1 X172.162 Y163.768 E34.61483
G1 X172.814 Y164.038 E34.6383
G1 X173.513 Y164.13 E34.66175
G1 X174.212 Y164.038 E34.6852
G1 X174.864 Y163.768 E34.70867
G1 X175.424 Y163.339 E34.73213
G1 X175.853 Y162.779 E34.75559
G1 X176.123 Y162.127 E34.77907
G1 X176.215 Y161.428 E34.80251
G1 X176.123 Y160.729 E34.82596
G1 X175.853 Y160.077 E34.84944
G1 X175.424 Y159.517 E34.8729
G1 X174.864 Y159.088 E34.89636
G1 X174.212 Y158.818 E34.91983
G1 X173.513 Y158.726 E34.94328
G1 X172.814 Y158.818 E34.96673
G1 X172.162 Y159.088 E34.9902
G1 X171.602 Y159.517 E35.01367
G0 F3600 X171.481 Y159.675
G0 X171.086 Y159.371
G0 X69.372 Y158.283
G0 X68.559 Y158.39
G0 X67.066 Y159.213
G0 X67.461 Y159.517
G1 F1800 X67.032 Y160.077 E35.03713
G1 X66.762 Y160.729 E35.0606
G1 X66.67 Y161.428 E35.08405
G1 X66.762 Y162.127 E35.1075
G1 X67.032 Y162.779 E35.13097
G1 X67.461 Y163.339 E35.15443
G1 X68.021 Y163.768 E35.1779
G1 X68.673 Y164.038 E35.20137
G1 X69.372 Y164.13 E35.22482
G1 X70.071 Y164.038 E35.24827
G1 X70.723 Y163.768 E35.27174
G1 X71.283 Y163.339 E35.2952
G1 X71.712 Y162.779 E35.31866
G1 X71.982 Y162.127 E35.34214
G1 X72.074 Y161.428 E35.36558
G1 X71.982 Y160.729 E35.38903
G1 X71.712 Y160.077 E35.41251
G1 X71.283 Y159.517 E35.43597
G1 X70.723 Y159.088 E35.45943
G1 X70.071 Y158.818 E35.4829
G1 X69.372 Y158.726 E35.50635
G1 X68.673 Y158.818 E35.5298
G1 X68.021 Y159.088 E35.55327
G1 X67.461 Y159.517 E35.57674
G0 F3600 X67.34 Y159.675
G0 X66.945 Y159.371
G0 X66.227 Y82.676
G0 X66.334 Y81.863
G0 X67.066 Y80.461
G0 X67.461 Y80.765
G1 F1800 X67.032 Y81.325 E35.6002
G1 X66.762 Y81.977 E35.62367
G1 X66.67 Y82.676 E35.64712
G1 X66.762 Y83.375 E35.67057
G1 X67.032 Y84.027 E35.69404
G1 X67.461 Y84.587 E35.7175
G1 X68.021 Y85.016 E35.74097
G1 X68.673 Y85.286 E35.76444
G1 X69.372 Y85.378 E35.78789
G1 X70.071 Y85.286 E35.81134
G1 X70.723 Y85.016 E35.83481
G1 X71.283 Y84.587 E35.85827
G1 X71.712 Y84.027 E35.88173
G1 X71.982 Y83.375 E35.90521
G1 X72.074 Y82.676 E35.92865
G1 X71.982 Y81.977 E35.9521
G1 X71.712 Y81.325 E35.97558
G1 X71.283 Y80.765 E35.99904
G1 X70.723 Y80.336 E36.0225
G1 X70.071 Y80.066 E36.04597
G1 X69.372 Y79.974 E36.06942
G1 X68.673 Y80.066 E36.09287
G1 X68.021 Y80.336 E36.11634
G1 X67.461 Y80.765 E36.13981
G0 F3600 X67.34 Y80.923
G0 X66.897 Y80.201
;TYPE:SKIN
G1 F1800 X66.342 Y80.926 E36.17017
G1 X65.992 Y81.771 E36.20059
G1 X65.873 Y82.676 E36.23095
G1 X65.992 Y83.581 E36.26131
G1 X66.342 Y84.426 E36.29173
G1 X66.897 Y85.151 E36.3221
G1 X67.622 Y85.706 E36.35247
G1 X68.467 Y86.056 E36.38289
G1 X69.372 Y86.175 E36.41325
G1 X70.277 Y86.056 E36.44361
G1 X71.122 Y85.706 E36.47403
G1 X71.847 Y85.151 E36.5044
G1 X72.402 Y84.426 E36.53477
G1 X72.752 Y83.581 E36.56519
G1 X72.871 Y82.676 E36.59554
G1 X72.752 Y81.771 E36.6259
G1 X72.402 Y80.926 E36.65632
G1 X71.847 Y80.201 E36.68669
G1 X71.122 Y79.646 E36.71706
G1 X70.277 Y79.296 E36.74748
G1 X69.372 Y79.177 E36.77784
G1 X68.467 Y79.296 E36.8082
G1 X67.622 Y79.646 E36.83862
G1 X66.897 Y80.201 E36.86899
G0 F3600 X60.962 Y75.336
G1 F1800 X61.003 Y75.023 E36.87949
G1 X61.104 Y74.778 E36.8883
G1 X61.265 Y74.569 E36.89708
G1 X61.474 Y74.409 E36.90583
G1 X61.718 Y74.307 E36.91463
G1 X62.033 Y74.266 E36.92519
G1 X180.852 Y74.266 E40.87713
G1 X181.167 Y74.307 E40.88769
G1 X181.411 Y74.409 E40.89649
G1 X181.62 Y74.569 E40.90524
G1 X181.781 Y74.778 E40.91402
G1 X181.882 Y75.023 E40.92283
G1 X181.923 Y75.336 E40.93333
G1 X181.923 Y88.587 E41.37406
G1 X164.158 Y88.587 E41.96493
G1 X164.158 Y110.567 E42.69599
G1 X181.923 Y110.567 E43.28685
G1 X181.923 Y168.767 E45.22259
G1 X181.882 Y169.082 E45.23316
G1 X181.78 Y169.326 E45.24195
G1 X181.62 Y169.535 E45.25071
G1 X181.411 Y169.695 E45.25946
G1 X181.167 Y169.797 E45.26826
G1 X180.852 Y169.838 E45.27882
G1 X62.033 Y169.838 E49.23076
G1 X61.718 Y169.797 E49.24133
G1 X61.474 Y169.695 E49.25012
G1 X61.265 Y169.535 E49.25888
G1 X61.105 Y169.326 E49.26763
G1 X61.003 Y169.082 E49.27643
G1 X60.962 Y168.767 E49.28699
G1 X60.962 Y75.336 E52.39452
G0 F3600 X69.372 Y157.929
G1 F1800 X68.467 Y158.048 E52.42488
G1 X67.622 Y158.398 E52.4553
G1 X66.897 Y158.953 E52.48567
G1 X66.342 Y159.678 E52.51604
G1 X65.992 Y160.523 E52.54646
G1 X65.873 Y161.428 E52.57682
G1 X65.992 Y162.333 E52.60717
G1 X66.342 Y163.178 E52.63759
G1 X66.897 Y163.903 E52.66796
G1 X67.622 Y164.458 E52.69833
G1 X68.467 Y164.808 E52.72875
G1 X69.372 Y164.927 E52.75911
G1 X70.277 Y164.808 E52.78947
G1 X71.122 Y164.458 E52.81989
G1 X71.847 Y163.903 E52.85026
G1 X72.402 Y163.178 E52.88063
G1 X72.752 Y162.333 E52.91105
G1 X72.871 Y161.428 E52.94141
G1 X72.752 Y160.523 E52.97177
G1 X72.402 Y159.678 E53.00219
G1 X71.847 Y158.953 E53.03255
G1 X71.122 Y158.398 E53.06292
G1 X70.277 Y158.048 E53.09334
G1 X69.372 Y157.929 E53.1237
G0 F3600 X170.483 Y159.678
G1 F1800 X170.133 Y160.523 E53.15412
G1 X170.014 Y161.428 E53.18448
G1 X170.133 Y162.333 E53.21484
G1 X170.483 Y163.178 E53.24526
G1 X171.038 Y163.903 E53.27563
G1 X171.763 Y164.458 E53.306
G1 X172.608 Y164.808 E53.33642
G1 X173.513 Y164.927 E53.36678
G1 X174.418 Y164.808 E53.39714
G1 X175.263 Y164.458 E53.42756
G1 X175.988 Y163.903 E53.45793
G1 X176.543 Y163.178 E53.48829
G1 X176.893 Y162.333 E53.51871
G1 X177.012 Y161.428 E53.54907
G1 X176.893 Y160.523 E53.57943
G1 X176.543 Y159.678 E53.60985
G1 X175.988 Y158.953 E53.64022
G1 X175.263 Y158.398 E53.67059
G1 X174.418 Y158.048 E53.70101
G1 X173.513 Y157.929 E53.73137
G1 X172.608 Y158.048 E53.76173
G1 X171.763 Y158.398 E53.79215
G1 X171.038 Y158.953 E53.82252
G1 X170.483 Y159.678 E53.85288
G0 F3600 X164.52 Y110.205
G0 X164.52 Y88.949
G0 X170.014 Y82.676
G1 F1800 X170.133 Y83.581 E53.88324
G1 X170.483 Y84.426 E53.91366
G1 X171.038 Y85.151 E53.94403
G1 X171.763 Y85.706 E53.9744
G1 X172.608 Y86.056 E54.00482
G1 X173.513 Y86.175 E54.03518
G1 X174.418 Y86.056 E54.06554
G1 X175.263 Y85.706 E54.09596
G1 X175.988 Y85.151 E54.12633
G1 X176.543 Y84.426 E54.1567
G1 X176.893 Y83.581 E54.18712
G1 X177.012 Y82.676 E54.21748
G1 X176.893 Y81.771 E54.24784
G1 X176.543 Y80.926 E54.27826
G1 X175.988 Y80.201 E54.30862
G1 X175.263 Y79.646 E54.33899
G1 X174.418 Y79.296 E54.36941
G1 X173.513 Y79.177 E54.39977
G1 X172.608 Y79.296 E54.43013
G1 X171.763 Y79.646 E54.46055
G1 X171.038 Y80.201 E54.49092
G1 X170.483 Y80.926 E54.52129
G1 X170.133 Y81.771 E54.55171
G1 X170.014 Y82.676 E54.58207
G0 F3600 X170.79 Y81.104
G0 X171.289 Y80.452
G0 X181.742 Y75.393
G1 F1800 X180.794 Y74.445 E54.62666
G0 F3600 X180.228 Y74.445
G1 F1800 X181.742 Y75.959 E54.69787
G0 F3600 X181.742 Y76.525
G1 F1800 X179.663 Y74.445 E54.79569
G0 F3600 X179.097 Y74.445
G1 F1800 X181.742 Y77.09 E54.9201
G0 F3600 X181.742 Y77.656
G1 F1800 X178.531 Y74.445 E55.07113
G0 F3600 X177.966 Y74.445
G1 F1800 X181.742 Y78.222 E55.24877
G0 F3600 X181.742 Y78.787
G1 F1800 X177.4 Y74.445 E55.453
G0 F3600 X176.834 Y74.445
G1 F1800 X181.742 Y79.353 E55.68386
G0 F3600 X181.742 Y79.919
G1 F1800 X176.268 Y74.445 E55.94134
G0 F3600 X175.703 Y74.445
G1 F1800 X181.742 Y80.485 E56.22542
G0 F3600 X181.742 Y81.05
G1 F1800 X175.137 Y74.445 E56.5361
G0 F3600 X174.571 Y74.445
G1 F1800 X181.742 Y81.616 E56.8734
G0 F3600 X181.742 Y82.182
G1 F1800 X174.006 Y74.445 E57.2373
G0 F3600 X173.44 Y74.445
G1 F1800 X181.742 Y82.747 E57.6278
G0 F3600 X181.742 Y83.313
G1 F1800 X172.874 Y74.445 E58.04493
G0 F3600 X172.309 Y74.445
G1 F1800 X181.742 Y83.879 E58.48865
G0 F3600 X181.742 Y84.444
G1 F1800 X171.743 Y74.445 E58.95897
G0 F3600 X171.177 Y74.445
G1 F1800 X181.742 Y85.01 E59.45592
G0 F3600 X181.742 Y85.576
G1 F1800 X170.612 Y74.445 E59.97946
G0 F3600 X170.046 Y74.445
G1 F1800 X174.902 Y79.301 E60.20787
G1 X174.972 Y79.371
G0 F3600 X174.108 Y79.073
G1 F1800 X169.48 Y74.445 E60.42556
G0 F3600 X168.915 Y74.445
G1 F1800 X173.469 Y79 E60.63979
G0 F3600 X172.97 Y79.066
G1 F1800 X168.349 Y74.445 E60.85715
G0 F3600 X167.783 Y74.445
G1 F1800 X172.488 Y79.149 E61.07843
G0 F3600 X172.087 Y79.315
G1 F1800 X167.218 Y74.445 E61.30748
G0 F3600 X166.652 Y74.445
G1 F1800 X171.687 Y79.48 E61.54431
G0 F3600 X171.363 Y79.722
G1 F1800 X166.086 Y74.445 E61.79252
G0 F3600 X165.52 Y74.445
G1 F1800 X171.043 Y79.968 E62.05231
G0 F3600 X170.766 Y80.257
G1 F1800 X164.955 Y74.445 E62.32566
G0 F3600 X164.389 Y74.445
G1 F1800 X170.521 Y80.577 E62.61409
G0 F3600 X170.291 Y80.913
G1 F1800 X163.823 Y74.445 E62.91833
G0 F3600 X163.258 Y74.445
G1 F1800 X170.126 Y81.313 E63.24138
G0 F3600 X169.96 Y81.713
G1 F1800 X162.692 Y74.445 E63.58324
G0 F3600 X162.126 Y74.445
G1 F1800 X169.893 Y82.211 E63.94856
G0 F3600 X169.837 Y82.722
G1 F1800 X161.561 Y74.445 E64.33786
G0 F3600 X160.995 Y74.445
G1 F1800 X169.924 Y83.374 E64.75785
G1 X169.994 Y83.444
G0 F3600 X170.199 Y84.215
G1 F1800 X160.429 Y74.445 E65.2174
G0 F3600 X159.864 Y74.445
G1 F1800 X173.825 Y88.406 E65.87408
G0 F3600 X174.39 Y88.406
G1 F1800 X171.972 Y85.988 E65.98782
G1 X171.902 Y85.918
G0 F3600 X172.814 Y86.264
G1 F1800 X174.956 Y88.406 E66.08857
