;FLAVOR:Marlin
;TIME:28078
;Filament used: 28.7806m
;Layer height: 0.2
;MINX:10.579
;MINY:9.486
;MINZ:0.2
;MAXX:217.981
;MAXY:223.069
;MAXZ:17.6
;Generated with Cura_SteamEngine 4.1.0
M140 S60
M105
M190 S60
M104 S200
M105
M109 S200
M82 ;absolute extrusion mode
; Ender 3 Custom Start G-code
G28 ; Home all axes
G92 E0 ; Reset Extruder
G1 Z2.0 F3000 ; Move Z Axis up little to prevent scratching of Heat Bed
G1 X0.1 Y20 Z0.3 F5000.0 ; Move to start position
G1 X0.1 Y200.0 Z0.3 F1500.0 E15 ; Draw the first line
G1 X0.4 Y200.0 Z0.3 F5000.0 ; Move to side a little
G1 X0.4 Y20 Z0.3 F1500.0 E30 ; Draw the second line
G92 E0 ; Reset Extruder
G1 Z2.0 F3000 ; Move Z Axis up little to prevent scratching of Heat Bed
; End of custom start GCode
G92 E0
G92 E0
G1 F2400 E-5
;LAYER_COUNT:88
;LAYER:0
M107
M204 S500
M205 X10 Y10
;MESH:BMS_Housing_R_Top_V1.stl
G0 F3600 X12.057 Y10.018 Z0.2
;TYPE:WALL-INNER
G1 F2400 E0
G1 F1800 X11.903 Y9.886 E0.00675
G1 X12.057 Y9.886 E0.00722
G1 X12.38 Y9.886 E0.01796
G1 X82.549 Y9.886 E2.35179
G1 X82.565 Y9.886 E2.35232
G1 X82.973 Y9.886 E2.36589
G1 X92.588 Y9.886 E2.68569
G1 X92.93 Y9.886 E2.69706
G1 X92.995 Y9.886 E2.69923
G1 X99.609 Y9.886 E2.91921
G1 X99.609 Y45.899 E4.117
G1 X99.556 Y46.508 E4.13734
G1 X99.403 Y47.08 E4.15703
G1 X99.156 Y47.61 E4.17648
G1 X98.807 Y48.107 E4.19668
G1 X98.396 Y48.518 E4.21601
G1 X97.906 Y48.861 E4.2359
G1 X97.369 Y49.111 E4.2556
G1 X96.797 Y49.265 E4.27531
G1 X96.191 Y49.318 E4.29554
G1 X52.771 Y49.318 E5.73969
G1 X52.22 Y49.274 E5.75808
G1 X51.695 Y49.149 E5.77603
G1 X51.21 Y48.947 E5.7935
G1 X50.748 Y48.664 E5.81152
G1 X50.323 Y48.301 E5.83011
G1 X12.285 Y10.246 E7.6197
G1 X12.057 Y10.018 E7.6271
G0 F3600 X12.123 Y9.943
G0 X87.723 Y38.094
G0 X87.822 Y38.094
G1 F1800 X87.901 Y38.785 E7.65024
G1 X88.13 Y39.441 E7.67335
G1 X88.5 Y40.03 E7.69648
G1 X88.992 Y40.521 E7.7196
G1 X89.58 Y40.89 E7.74269
G1 X90.235 Y41.119 E7.76577
G1 X90.926 Y41.198 E7.7889
G1 X91.618 Y41.119 E7.81206
G1 X92.273 Y40.89 E7.83514
G1 X92.861 Y40.521 E7.85823
G1 X93.353 Y40.03 E7.88135
G1 X93.723 Y39.441 E7.90449
G1 X93.953 Y38.784 E7.92764
G1 X94.029 Y38.094 E7.95073
G1 X93.953 Y37.404 E7.97381
G1 X93.723 Y36.747 E7.99697
G1 X93.353 Y36.158 E8.0201
G1 X92.861 Y35.667 E8.04322
G1 X92.273 Y35.298 E8.06631
G1 X91.618 Y35.069 E8.08939
G1 X90.926 Y34.99 E8.11255
G1 X90.235 Y35.069 E8.13569
G1 X89.58 Y35.298 E8.15876
G1 X88.992 Y35.667 E8.18185
G1 X88.5 Y36.158 E8.20497
G1 X88.13 Y36.747 E8.22811
G1 X87.901 Y37.403 E8.25122
G1 X87.822 Y38.094 E8.27435
G0 F3600 X87.723 Y38.094
G0 X89.895 Y28.886
G0 X92.594 Y28.886
G0 X93.408 Y28.646
G0 X93.991 Y28.029
G0 X94.187 Y11.77
G0 X93.37 Y10.329
G0 X93.313 Y10.408
G1 F1800 X92.99 Y10.285 E8.28584
G1 X92.93 Y10.262 E8.28792
G1 X92.588 Y10.216 E8.29806
G1 X82.973 Y10.216 E8.56189
G1 X82.565 Y10.279 E8.57431
G1 X82.551 Y10.285 E8.57481
G1 X82.181 Y10.45 E8.58828
G1 X81.857 Y10.714 E8.60218
G1 X81.611 Y11.051 E8.61606
G1 X81.465 Y11.434 E8.62969
G1 X81.419 Y11.776 E8.64117
G1 X81.419 Y27.293 E9.15727
G1 X81.482 Y27.701 E9.171
G1 X81.653 Y28.085 E9.18498
G1 X81.917 Y28.409 E9.19888
G1 X82.254 Y28.655 E9.21276
G1 X82.637 Y28.801 E9.22639
G1 X82.979 Y28.847 E9.23787
G1 X92.594 Y28.847 E9.55767
G1 X93.002 Y28.784 E9.5714
G1 X93.386 Y28.613 E9.58538
G1 X93.71 Y28.349 E9.59928
G1 X93.956 Y28.012 E9.61316
G1 X94.102 Y27.629 E9.62679
G1 X94.148 Y27.287 E9.63827
G1 X94.148 Y11.77 E10.15436
G1 X94.085 Y11.362 E10.16809
G1 X93.914 Y10.978 E10.18208
G1 X93.65 Y10.654 E10.19598
G1 X93.313 Y10.408 E10.20985
G0 F3600 X93.37 Y10.329
G0 X82.477 Y10.209
G0 X82.679 Y10.666
;TYPE:WALL-OUTER
G1 F1800 X82.392 Y10.794 E10.22031
G1 X82.15 Y10.991 E10.23068
G1 X81.966 Y11.244 E10.24109
G1 X81.855 Y11.533 E10.25139
G1 X81.819 Y11.803 E10.26045
G1 X81.819 Y27.262 E10.77461
G1 X81.869 Y27.587 E10.78555
G1 X81.997 Y27.874 E10.796
G1 X82.194 Y28.116 E10.80638
G1 X82.447 Y28.3 E10.81679
G1 X82.736 Y28.411 E10.82708
G1 X83.006 Y28.447 E10.83614
G1 X92.563 Y28.447 E11.15401
G1 X92.888 Y28.397 E11.16495
G1 X93.175 Y28.269 E11.1754
G1 X93.417 Y28.072 E11.18578
G1 X93.601 Y27.819 E11.19618
G1 X93.712 Y27.53 E11.20648
G1 X93.748 Y27.26 E11.21554
G1 X93.748 Y11.801 E11.72971
G1 X93.698 Y11.476 E11.74064
G1 X93.57 Y11.189 E11.7511
G1 X93.373 Y10.947 E11.76147
G1 X93.12 Y10.763 E11.77188
G1 X92.831 Y10.652 E11.78218
G1 X92.561 Y10.616 E11.79124
G1 X83.004 Y10.616 E12.1091
G1 X82.679 Y10.666 E12.12004
G0 F3600 X82.497 Y10.747
G0 X82.294 Y10.29
G0 X81.576 Y11.034
G0 X81.38 Y27.293
G0 X88.463 Y36.055
G0 X88.815 Y36.409
G1 F1800 X88.493 Y36.922 E12.14019
G1 X88.293 Y37.493 E12.16031
G1 X88.225 Y38.094 E12.18042
G1 X88.293 Y38.695 E12.20054
G1 X88.493 Y39.266 E12.22066
G1 X88.815 Y39.779 E12.24081
G1 X89.243 Y40.206 E12.26092
G1 X89.755 Y40.527 E12.28102
G1 X90.325 Y40.727 E12.30111
G1 X90.926 Y40.795 E12.32123
G1 X91.528 Y40.727 E12.34138
G1 X92.098 Y40.527 E12.36147
G1 X92.61 Y40.206 E12.38157
G1 X93.038 Y39.779 E12.40167
G1 X93.36 Y39.266 E12.42182
G1 X93.56 Y38.695 E12.44194
G1 X93.627 Y38.094 E12.46206
G1 X93.56 Y37.493 E12.48217
G1 X93.36 Y36.922 E12.50229
G1 X93.038 Y36.409 E12.52244
G1 X92.61 Y35.982 E12.54255
G1 X92.098 Y35.661 E12.56264
G1 X91.528 Y35.461 E12.58274
G1 X90.926 Y35.393 E12.60289
G1 X90.325 Y35.461 E12.623
G1 X89.755 Y35.661 E12.64309
G1 X89.243 Y35.982 E12.66319
G1 X88.815 Y36.409 E12.6833
G0 F3600 X88.709 Y36.578
G0 X88.286 Y36.312
G0 X10.796 Y9.529
G0 X10.727 Y9.544
G1 F1800 X10.587 Y9.486 E12.68834
G1 X10.727 Y9.486 E12.6886
G1 X11.333 Y9.486 E12.70876
G1 X100.009 Y9.486 E15.65813
G1 X100.009 Y45.911 E16.86963
G1 X99.951 Y46.577 E16.89187
G1 X99.78 Y47.217 E16.9139
G1 X99.5 Y47.816 E16.93589
G1 X99.116 Y48.364 E16.95815
G1 X98.655 Y48.825 E16.97983
G1 X98.105 Y49.21 E17.00216
G1 X97.51 Y49.487 E17.02399
G1 X96.868 Y49.66 E17.04611
G1 X96.203 Y49.718 E17.06831
G1 X52.752 Y49.718 E18.5135
G1 X52.159 Y49.671 E18.53328
G1 X51.574 Y49.531 E18.55329
G1 X51.025 Y49.303 E18.57306
G1 X50.512 Y48.988 E18.59308
G1 X50.049 Y48.593 E18.61332
G1 X11.785 Y10.312 E20.41355
G1 X11.29 Y9.889 E20.4352
G1 X11.243 Y9.86 E20.43704
G1 X10.727 Y9.544 E20.44888
G0 F3600 X10.587 Y9.486
G0 X10.636 Y9.486
G0 X10.81 Y9.536
G0 X12.866 Y10.276
;TYPE:SKIN
G1 F1800 X81.777 Y10.276 E22.74087
G1 X81.572 Y10.443 E22.74966
G1 X81.266 Y10.864 E22.76697
G1 X81.085 Y11.337 E22.78382
G1 X81.029 Y11.75 E22.79768
G1 X81.029 Y27.322 E23.31561
G1 X81.104 Y27.812 E23.33209
G1 X81.318 Y28.291 E23.34954
G1 X81.646 Y28.694 E23.36683
G1 X82.067 Y29 E23.38414
G1 X82.54 Y29.181 E23.40098
G1 X82.953 Y29.237 E23.41484
G1 X92.623 Y29.237 E23.73647
G1 X93.113 Y29.162 E23.75296
G1 X93.592 Y28.948 E23.77041
G1 X93.995 Y28.62 E23.78769
G1 X94.301 Y28.199 E23.805
G1 X94.482 Y27.726 E23.82184
G1 X94.538 Y27.313 E23.8357
G1 X94.538 Y11.741 E24.35363
G1 X94.463 Y11.251 E24.37012
G1 X94.249 Y10.772 E24.38757
G1 X93.921 Y10.369 E24.40485
G1 X93.793 Y10.276 E24.41011
G1 X99.219 Y10.276 E24.59058
G1 X99.219 Y45.899 E25.77541
G1 X99.172 Y46.435 E25.7933
G1 X99.033 Y46.952 E25.81111
G1 X98.821 Y47.408 E25.82784
G1 X98.501 Y47.863 E25.84634
G1 X98.152 Y48.212 E25.86275
G1 X97.704 Y48.526 E25.88095
G1 X97.237 Y48.743 E25.89808
G1 X96.728 Y48.881 E25.91562
G1 X96.181 Y48.928 E25.93388
G1 X52.776 Y48.928 E27.37753
G1 X52.289 Y48.889 E27.39378
G1 X51.813 Y48.776 E27.41005
G1 X51.388 Y48.598 E27.42538
G1 X50.974 Y48.345 E27.44152
G1 X50.583 Y48.011 E27.45862
G1 X12.866 Y10.276 E29.23314
G0 F3600 X87.777 Y36.577
G1 F1800 X87.519 Y37.315 E29.25914
G1 X87.43 Y38.094 E29.28522
G1 X87.519 Y38.873 E29.3113
G1 X87.777 Y39.611 E29.3373
G1 X88.194 Y40.275 E29.36338
G1 X88.748 Y40.828 E29.38941
G1 X89.41 Y41.243 E29.4154
G1 X90.147 Y41.501 E29.44137
G1 X90.926 Y41.59 E29.46745
G1 X91.706 Y41.501 E29.49356
G1 X92.443 Y41.243 E29.51953
G1 X93.105 Y40.828 E29.54552
G1 X93.659 Y40.275 E29.57155
G1 X94.076 Y39.611 E29.59763
G1 X94.335 Y38.871 E29.62371
G1 X94.421 Y38.094 E29.64971
G1 X94.335 Y37.317 E29.67571
G1 X94.076 Y36.577 E29.70179
G1 X93.659 Y35.913 E29.72786
G1 X93.105 Y35.36 E29.7539
G1 X92.443 Y34.945 E29.77989
G1 X91.706 Y34.687 E29.80586
G1 X90.926 Y34.598 E29.83197
G1 X90.147 Y34.687 E29.85805
G1 X89.41 Y34.945 E29.88402
G1 X88.748 Y35.36 E29.91001
G1 X88.194 Y35.913 E29.93604
G1 X87.777 Y36.577 E29.96212
G0 F3600 X93.991 Y28.029
G0 X99.038 Y10.791
G1 F1800 X98.702 Y10.455 E29.97792
G0 F3600 X98.137 Y10.455
G1 F1800 X99.038 Y11.356 E30.0203
G0 F3600 X99.038 Y11.922
G1 F1800 X97.571 Y10.455 E30.08931
G0 F3600 X97.005 Y10.455
G1 F1800 X99.038 Y12.488 E30.18493
G0 F3600 X99.038 Y13.053
G1 F1800 X96.44 Y10.455 E30.30714
G0 F3600 X95.874 Y10.455
G1 F1800 X99.038 Y13.619 E30.45596
G0 F3600 X99.038 Y14.185
G1 F1800 X95.308 Y10.455 E30.63141
G0 F3600 X94.743 Y10.455
G1 F1800 X99.038 Y14.75 E30.83343
G0 F3600 X99.038 Y15.316
G1 F1800 X94.405 Y10.684 E31.05133
G1 X94.335 Y10.614
G0 F3600 X94.687 Y11.531
G1 F1800 X99.038 Y15.882 E31.25599
G0 F3600 X99.038 Y16.448
G1 F1800 X94.717 Y12.127 E31.45923
G0 F3600 X94.717 Y12.693
G1 F1800 X99.038 Y17.013 E31.66246
G0 F3600 X99.038 Y17.579
G1 F1800 X94.717 Y13.258 E31.8657
G0 F3600 X94.717 Y13.824
G1 F1800 X99.038 Y18.145 E32.06895
G0 F3600 X99.038 Y18.71
G1 F1800 X94.717 Y14.39 E32.27217
G0 F3600 X94.717 Y14.956
G1 F1800 X99.038 Y19.276 E32.4754
G0 F3600 X99.038 Y19.842
G1 F1800 X94.717 Y15.521 E32.67864
G0 F3600 X94.717 Y16.087
G1 F1800 X99.038 Y20.407 E32.88187
G0 F3600 X99.038 Y20.973
G1 F1800 X94.717 Y16.653 E33.08509
G0 F3600 X94.717 Y17.218
G1 F1800 X99.038 Y21.539 E33.28834
G0 F3600 X99.038 Y22.104
G1 F1800 X94.717 Y17.784 E33.49156
G0 F3600 X94.717 Y18.35
G1 F1800 X99.038 Y22.67 E33.69478
G0 F3600 X99.038 Y23.236
G1 F1800 X94.717 Y18.915 E33.89803
G0 F3600 X94.717 Y19.481
G1 F1800 X99.038 Y23.801 E34.10125
G0 F3600 X99.038 Y24.367
G1 F1800 X94.717 Y20.047 E34.30448
G0 F3600 X94.717 Y20.612
G1 F1800 X99.038 Y24.933 E34.50772
G0 F3600 X99.038 Y25.498
G1 F1800 X94.717 Y21.178 E34.71094
G0 F3600 X94.717 Y21.744
G1 F1800 X99.038 Y26.064 E34.91417
G0 F3600 X99.038 Y26.63
G1 F1800 X94.717 Y22.309 E35.11741
G0 F3600 X94.717 Y22.875
G1 F1800 X99.038 Y27.196 E35.32066
G0 F3600 X99.038 Y27.761
G1 F1800 X94.717 Y23.441 E35.52388
G0 F3600 X94.717 Y24.006
G1 F1800 X99.038 Y28.327 E35.72713
G0 F3600 X99.038 Y28.893
G1 F1800 X94.717 Y24.572 E35.93038
G0 F3600 X94.717 Y25.138
G1 F1800 X99.038 Y29.458 E36.1336
G0 F3600 X99.038 Y30.024
G1 F1800 X94.717 Y25.704 E36.33682
G0 F3600 X94.717 Y26.269
G1 F1800 X99.038 Y30.59 E36.54007
G0 F3600 X99.038 Y31.155
G1 F1800 X94.717 Y26.835 E36.74329
G0 F3600 X94.707 Y27.391
G1 F1800 X99.038 Y31.721 E36.94699
G0 F3600 X99.038 Y32.287
G1 F1800 X94.618 Y27.867 E37.15489
G0 F3600 X94.462 Y28.277
G1 F1800 X99.038 Y32.852 E37.37011
G0 F3600 X99.038 Y33.418
G1 F1800 X94.225 Y28.606 E37.59647
G0 F3600 X93.945 Y28.891
G1 F1800 X99.038 Y33.984 E37.83603
G0 F3600 X99.038 Y34.549
G1 F1800 X93.62 Y29.132 E38.09085
G0 F3600 X93.229 Y29.307
G1 F1800 X99.038 Y35.115 E38.36407
G0 F3600 X99.038 Y35.681
G1 F1800 X92.755 Y29.398 E38.6596
G0 F3600 X92.208 Y29.417
G1 F1800 X99.038 Y36.247 E38.98086
G0 F3600 X99.038 Y36.812
G1 F1800 X91.642 Y29.417 E39.32873
G0 F3600 X91.076 Y29.417
G1 F1800 X99.038 Y37.378 E39.70321
G0 F3600 X99.038 Y37.944
G1 F1800 X90.511 Y29.417 E40.10429
G0 F3600 X89.945 Y29.417
G1 F1800 X99.038 Y38.509 E40.53198
G0 F3600 X99.038 Y39.075
G1 F1800 X89.379 Y29.417 E40.98628
G0 F3600 X88.814 Y29.417
G1 F1800 X99.038 Y39.641 E41.46719
G0 F3600 X99.038 Y40.206
G1 F1800 X88.248 Y29.417 E41.97469
G0 F3600 X87.682 Y29.417
G1 F1800 X99.038 Y40.772 E42.50882
G0 F3600 X99.038 Y41.338
G1 F1800 X94.259 Y36.559 E42.73361
G1 X94.189 Y36.489
G0 F3600 X94.523 Y37.388
G1 F1800 X99.038 Y41.903 E42.94598
G0 F3600 X99.038 Y42.469
G1 F1800 X94.593 Y38.024 E43.15506
G0 F3600 X94.55 Y38.547
G1 F1800 X99.038 Y43.035 E43.36616
G0 F3600 X99.038 Y43.6
G1 F1800 X94.468 Y39.03 E43.58112
G0 F3600 X94.321 Y39.45
G1 F1800 X99.038 Y44.166 E43.80297
G0 F3600 X99.038 Y44.732
G1 F1800 X94.144 Y39.838 E44.03317
G0 F3600 X93.925 Y40.185
G1 F1800 X99.038 Y45.297 E44.27365
G0 F3600 X99.038 Y45.863
G1 F1800 X93.681 Y40.506 E44.52562
G0 F3600 X93.398 Y40.789
G1 F1800 X98.995 Y46.386 E44.78889
G0 F3600 X98.878 Y46.835
G1 F1800 X93.091 Y41.048 E45.06109
G0 F3600 X92.743 Y41.266
G1 F1800 X98.705 Y47.228 E45.34153
G0 F3600 X98.484 Y47.572
G1 F1800 X92.37 Y41.459 E45.62909
G0 F3600 X91.951 Y41.605
G1 F1800 X98.227 Y47.881 E45.92429
G0 F3600 X97.927 Y48.147
G1 F1800 X91.486 Y41.706 E46.22726
G0 F3600 X90.979 Y41.765
G1 F1800 X97.592 Y48.378 E46.53831
G0 F3600 X97.206 Y48.557
G1 F1800 X90.354 Y41.705 E46.86061
G1 X90.284 Y41.635
G0 F3600 X89.574 Y41.491
G1 F1800 X96.767 Y48.684 E47.19894
G0 F3600 X96.258 Y48.74
G1 F1800 X57.973 Y10.455 E48.99975
G0 F3600 X57.407 Y10.455
G1 F1800 X95.699 Y48.747 E50.80089
G0 F3600 X95.134 Y48.747
G1 F1800 X56.842 Y10.455 E52.60203
G0 F3600 X56.276 Y10.455
G1 F1800 X94.568 Y48.747 E54.40317
G0 F3600 X94.002 Y48.747
G1 F1800 X55.71 Y10.455 E56.20431
G0 F3600 X55.145 Y10.455
G1 F1800 X93.437 Y48.747 E58.00545
G0 F3600 X92.871 Y48.747
G1 F1800 X54.579 Y10.455 E59.80658
G0 F3600 X54.013 Y10.455
G1 F1800 X92.305 Y48.747 E61.60772
G0 F3600 X91.74 Y48.747
G1 F1800 X53.448 Y10.455 E63.40886
G0 F3600 X52.882 Y10.455
G1 F1800 X91.174 Y48.747 E65.21
G0 F3600 X90.608 Y48.747
G1 F1800 X52.316 Y10.455 E67.01114
G0 F3600 X51.751 Y10.455
G1 F1800 X90.042 Y48.747 E68.81225
G0 F3600 X89.477 Y48.747
G1 F1800 X51.185 Y10.455 E70.61339
G0 F3600 X50.619 Y10.455
G1 F1800 X88.911 Y48.747 E72.41453
G0 F3600 X88.345 Y48.747
G1 F1800 X50.053 Y10.455 E74.21567
G0 F3600 X49.488 Y10.455
G1 F1800 X87.78 Y48.747 E76.0168
G0 F3600 X87.214 Y48.747
G1 F1800 X48.922 Y10.455 E77.81794
G0 F3600 X48.356 Y10.455
G1 F1800 X86.648 Y48.747 E79.61908
G0 F3600 X86.083 Y48.747
G1 F1800 X47.791 Y10.455 E81.42022
G0 F3600 X47.225 Y10.455
G1 F1800 X85.517 Y48.747 E83.22136
G0 F3600 X84.951 Y48.747
G1 F1800 X46.659 Y10.455 E85.0225
G0 F3600 X46.094 Y10.455
G1 F1800 X84.386 Y48.747 E86.82363
G0 F3600 X83.82 Y48.747
G1 F1800 X45.528 Y10.455 E88.62477
G0 F3600 X44.962 Y10.455
G1 F1800 X83.254 Y48.747 E90.42591
G0 F3600 X82.689 Y48.747
G1 F1800 X44.397 Y10.455 E92.22705
G0 F3600 X43.831 Y10.455
G1 F1800 X82.123 Y48.747 E94.02819
G0 F3600 X81.557 Y48.747
G1 F1800 X43.265 Y10.455 E95.82933
G0 F3600 X42.7 Y10.455
G1 F1800 X80.992 Y48.747 E97.63046
G0 F3600 X80.426 Y48.747
G1 F1800 X42.134 Y10.455 E99.4316
G0 F3600 X41.568 Y10.455
G1 F1800 X79.86 Y48.747 E101.23274
G0 F3600 X79.294 Y48.747
G1 F1800 X41.003 Y10.455 E103.03386
G0 F3600 X40.437 Y10.455
G1 F1800 X78.729 Y48.747 E104.83499
G0 F3600 X78.163 Y48.747
G1 F1800 X39.871 Y10.455 E106.63613
G0 F3600 X39.305 Y10.455
G1 F1800 X77.597 Y48.747 E108.43727
G0 F3600 X77.032 Y48.747
G1 F1800 X38.74 Y10.455 E110.23841
G0 F3600 X38.174 Y10.455
G1 F1800 X76.466 Y48.747 E112.03955
G0 F3600 X75.9 Y48.747
G1 F1800 X37.608 Y10.455 E113.84069
G0 F3600 X37.043 Y10.455
G1 F1800 X75.335 Y48.747 E115.64182
G0 F3600 X74.769 Y48.747
G1 F1800 X36.477 Y10.455 E117.44296
G0 F3600 X35.911 Y10.455
G1 F1800 X74.203 Y48.747 E119.2441
G0 F3600 X73.638 Y48.747
G1 F1800 X35.346 Y10.455 E121.04524
G0 F3600 X34.78 Y10.455
G1 F1800 X73.072 Y48.747 E122.84638
G0 F3600 X72.506 Y48.747
G1 F1800 X34.214 Y10.455 E124.64751
G0 F3600 X33.649 Y10.455
G1 F1800 X71.941 Y48.747 E126.44865
G0 F3600 X71.375 Y48.747
G1 F1800 X33.083 Y10.455 E128.24979
G0 F3600 X32.517 Y10.455
G1 F1800 X70.809 Y48.747 E130.05093
G0 F3600 X70.243 Y48.747
G1 F1800 X31.952 Y10.455 E131.85204
G0 F3600 X31.386 Y10.455
G1 F1800 X69.678 Y48.747 E133.65318
G0 F3600 X69.112 Y48.747
G1 F1800 X30.82 Y10.455 E135.45432
G0 F3600 X30.254 Y10.455
G1 F1800 X68.546 Y48.747 E137.25546
G0 F3600 X67.981 Y48.747
G1 F1800 X29.689 Y10.455 E139.0566
G0 F3600 X29.123 Y10.455
G1 F1800 X67.415 Y48.747 E140.85774
G0 F3600 X66.849 Y48.747
G1 F1800 X28.557 Y10.455 E142.65887
G0 F3600 X27.992 Y10.455
G1 F1800 X66.284 Y48.747 E144.46001
G0 F3600 X65.718 Y48.747
G1 F1800 X27.426 Y10.455 E146.26115
G0 F3600 X26.86 Y10.455
G1 F1800 X65.152 Y48.747 E148.06229
G0 F3600 X64.587 Y48.747
