;FLAVOR:Marlin
;TIME:1103
;Filament used: 0.751858m
;Layer height: 0.2
;MINX:94.923
;MINY:85.618
;MINZ:0.2
;MAXX:137.9
;MAXY:151.382
;MAXZ:3
;Generated with Cura_SteamEngine 4.1.0
M140 S60
M105
M190 S60
M104 S200
M105
M109 S200
M82 ;absolute extrusion mode
; Ender 3 Custom Start G-code
G28 ; Home all axes
G92 E0 ; Reset Extruder
G1 Z2.0 F3000 ; Move Z Axis up little to prevent scratching of Heat Bed
G1 X0.1 Y20 Z0.3 F5000.0 ; Move to start position
G1 X0.1 Y200.0 Z0.3 F1500.0 E15 ; Draw the first line
G1 X0.4 Y200.0 Z0.3 F5000.0 ; Move to side a little
G1 X0.4 Y20 Z0.3 F1500.0 E30 ; Draw the second line
G92 E0 ; Reset Extruder
G1 Z2.0 F3000 ; Move Z Axis up little to prevent scratching of Heat Bed
; End of custom start GCode
G92 E0
G92 E0
G1 F2400 E-5
;LAYER_COUNT:15
;LAYER:0
M107
M204 S500
M205 X10 Y10
G0 F3600 X97.994 Y89.846 Z0.2
;TYPE:SKIRT
G1 F2400 E0
G1 F1800 X98.379 Y89.428 E0.0189
G1 X98.822 Y88.989 E0.03964
G1 X99.321 Y88.543 E0.0619
G1 X99.807 Y88.153 E0.08263
G1 X100.359 Y87.757 E0.10523
G1 X100.88 Y87.423 E0.12581
G1 X101.252 Y87.202 E0.1402
G1 X101.434 Y87.102 E0.14711
G1 X101.71 Y86.959 E0.15745
G1 X102.079 Y86.779 E0.1711
G1 X102.392 Y86.636 E0.18255
G1 X102.593 Y86.551 E0.18981
G1 X102.931 Y86.42 E0.20186
G1 X103.342 Y86.273 E0.21638
G1 X103.861 Y86.112 E0.23445
G1 X104.413 Y85.966 E0.25344
G1 X104.794 Y85.877 E0.26646
G1 X105.039 Y85.828 E0.27477
G1 X105.427 Y85.763 E0.28785
G1 X105.822 Y85.709 E0.30111
G1 X106.137 Y85.674 E0.31165
G1 X106.345 Y85.656 E0.3186
G1 X106.674 Y85.636 E0.32956
G1 X107.075 Y85.622 E0.34291
G1 X107.361 Y85.618 E0.35242
G1 X107.564 Y85.62 E0.35917
G1 X107.949 Y85.636 E0.37199
G1 X108.419 Y85.669 E0.38766
G1 X109.028 Y85.741 E0.40806
G1 X110.163 Y85.931 E0.44633
G1 X110.299 Y85.955 E0.45092
G1 X111.83 Y86.246 E0.50276
G1 X114.474 Y86.669 E0.59182
G1 X117.048 Y87.007 E0.67816
G1 X119.74 Y87.284 E0.76817
G1 X122.311 Y87.475 E0.85392
G1 X125.954 Y87.626 E0.97519
G1 X126.127 Y87.636 E0.98095
G1 X126.595 Y87.668 E0.99655
G1 X127.173 Y87.734 E1.0159
G1 X127.758 Y87.828 E1.03561
G1 X128.216 Y87.919 E1.05114
G1 X128.419 Y87.967 E1.05808
G1 X128.71 Y88.043 E1.06808
G1 X129.111 Y88.158 E1.08196
G1 X129.39 Y88.245 E1.09168
G1 X129.58 Y88.309 E1.09835
G1 X129.914 Y88.432 E1.11018
G1 X130.329 Y88.598 E1.12505
G1 X130.88 Y88.849 E1.14519
G1 X131.43 Y89.132 E1.16576
G1 X131.996 Y89.461 E1.18754
G1 X132.524 Y89.805 E1.2085
G1 X133.083 Y90.214 E1.23153
G1 X133.567 Y90.61 E1.25233
G1 X133.889 Y90.892 E1.26657
G1 X134.047 Y91.04 E1.27377
G1 X134.269 Y91.258 E1.28412
G1 X134.548 Y91.546 E1.29746
G1 X134.919 Y91.964 E1.31604
G1 X135.308 Y92.443 E1.33657
G1 X135.579 Y92.802 E1.35153
G1 X135.699 Y92.973 E1.35848
G1 X135.888 Y93.258 E1.36985
G1 X136.116 Y93.623 E1.38416
G1 X136.285 Y93.911 E1.39527
G1 X136.387 Y94.095 E1.40227
G1 X136.541 Y94.389 E1.41331
G1 X136.711 Y94.737 E1.42619
G1 X136.85 Y95.043 E1.43737
G1 X136.935 Y95.243 E1.44459
G1 X137.05 Y95.533 E1.45497
G1 X137.207 Y95.959 E1.47007
G1 X137.387 Y96.527 E1.48989
G1 X137.541 Y97.106 E1.50982
G1 X137.634 Y97.507 E1.52351
G1 X137.677 Y97.724 E1.53086
G1 X137.735 Y98.063 E1.5423
G1 X137.792 Y98.462 E1.55571
G1 X137.83 Y98.796 E1.56689
G1 X137.849 Y99.008 E1.57397
G1 X137.871 Y99.343 E1.58514
G1 X137.892 Y99.911 E1.60404
G1 X137.896 Y100.081 E1.6097
G1 X137.9 Y100.471 E1.62267
G1 X137.9 Y138.27 E2.87987
G1 X137.899 Y138.359 E2.88283
G1 X137.888 Y139.153 E2.90924
G1 X137.878 Y139.432 E2.91852
G1 X137.846 Y139.987 E2.93702
G1 X137.78 Y140.607 E2.95775
G1 X137.69 Y141.183 E2.97714
G1 X137.608 Y141.613 E2.9917
G1 X137.553 Y141.855 E2.99996
G1 X137.472 Y142.174 E3.0109
G1 X137.362 Y142.564 E3.02438
G1 X137.184 Y143.102 E3.04323
G1 X136.96 Y143.691 E3.06419
G1 X136.778 Y144.121 E3.07972
G1 X136.688 Y144.314 E3.0868
G1 X136.553 Y144.588 E3.09696
G1 X136.37 Y144.936 E3.11004
G1 X136.203 Y145.233 E3.12137
G1 X136.088 Y145.426 E3.12884
G1 X135.915 Y145.7 E3.13962
G1 X135.683 Y146.048 E3.15353
G1 X135.333 Y146.525 E3.17321
G1 X134.921 Y147.034 E3.19499
G1 X134.471 Y147.532 E3.21731
G1 X134.044 Y147.959 E3.2374
G1 X133.554 Y148.401 E3.25935
G1 X133.053 Y148.808 E3.28082
G1 X132.503 Y149.209 E3.30345
G1 X131.984 Y149.546 E3.32404
G1 X131.416 Y149.875 E3.34587
G1 X130.875 Y150.152 E3.36608
G1 X130.282 Y150.418 E3.3877
G1 X129.697 Y150.646 E3.40858
G1 X129.052 Y150.859 E3.43118
G1 X128.434 Y151.027 E3.45248
G1 X127.767 Y151.171 E3.47517
G1 X127.161 Y151.268 E3.49558
G1 X126.509 Y151.338 E3.51739
G1 X125.888 Y151.373 E3.53808
G1 X125.437 Y151.382 E3.55308
G1 X125.227 Y151.379 E3.56007
G1 X124.916 Y151.367 E3.57042
G1 X124.503 Y151.341 E3.58419
G1 X123.918 Y151.277 E3.60376
G1 X123.213 Y151.167 E3.62749
G1 X123.041 Y151.138 E3.63329
G1 X120.519 Y150.674 E3.71858
G1 X117.877 Y150.265 E3.8075
G1 X115.261 Y149.935 E3.8952
G1 X112.628 Y149.679 E3.98319
G1 X109.993 Y149.497 E4.07104
G1 X108.014 Y149.427 E4.1369
G1 X107.947 Y149.424 E4.13913
G1 X106.876 Y149.375 E4.17479
G1 X106.774 Y149.37 E4.17819
G1 X106.321 Y149.342 E4.19328
G1 X105.949 Y149.308 E4.20571
G1 X105.742 Y149.283 E4.21264
G1 X105.442 Y149.239 E4.22273
G1 X105.028 Y149.169 E4.23669
G1 X104.445 Y149.043 E4.25653
G1 X103.834 Y148.88 E4.27756
G1 X103.432 Y148.758 E4.29153
G1 X103.237 Y148.692 E4.29838
G1 X102.931 Y148.58 E4.30922
G1 X102.555 Y148.431 E4.32267
G1 X102.239 Y148.296 E4.3341
G1 X102.052 Y148.21 E4.34095
G1 X101.759 Y148.066 E4.3518
G1 X101.371 Y147.863 E4.36637
G1 X101.05 Y147.683 E4.37861
G1 X100.878 Y147.58 E4.38528
G1 X100.612 Y147.412 E4.39574
G1 X100.269 Y147.183 E4.40946
G1 X99.998 Y146.991 E4.42051
G1 X99.833 Y146.868 E4.42735
G1 X99.592 Y146.679 E4.43754
G1 X99.248 Y146.396 E4.45235
G1 X98.794 Y145.985 E4.47272
G1 X98.351 Y145.543 E4.49353
G1 X97.911 Y145.057 E4.51534
G1 X97.513 Y144.569 E4.53628
G1 X97.111 Y144.018 E4.55897
G1 X96.78 Y143.51 E4.57914
G1 X96.461 Y142.962 E4.60023
G1 X96.168 Y142.397 E4.62139
G1 X95.881 Y141.762 E4.64457
G1 X95.651 Y141.168 E4.66576
G1 X95.438 Y140.518 E4.68851
G1 X95.277 Y139.919 E4.70914
G1 X95.141 Y139.288 E4.73061
G1 X95.042 Y138.681 E4.75106
G1 X94.97 Y138.027 E4.77295
G1 X94.933 Y137.398 E4.7939
G1 X94.923 Y136.897 E4.81057
G1 X94.927 Y136.692 E4.81739
G1 X94.938 Y136.42 E4.82644
G1 X94.964 Y136.002 E4.84037
G1 X95.035 Y135.374 E4.86139
G1 X95.297 Y133.76 E4.91578
G1 X95.318 Y133.634 E4.92003
G1 X95.437 Y132.982 E4.94207
G1 X95.838 Y130.371 E5.02993
G1 X96.162 Y127.765 E5.11727
G1 X96.417 Y125.115 E5.20582
G1 X96.596 Y122.453 E5.29456
G1 X96.699 Y119.843 E5.38144
G1 X96.727 Y117.158 E5.47074
G1 X96.681 Y114.521 E5.55846
G1 X96.562 Y111.917 E5.64516
G1 X96.362 Y109.213 E5.73534
G1 X96.099 Y106.647 E5.82114
G1 X95.752 Y104.003 E5.90983
G1 X95.098 Y100.085 E6.04195
G1 X95.07 Y99.896 E6.0483
G1 X95.011 Y99.463 E6.06284
G1 X94.959 Y98.906 E6.08144
G1 X94.929 Y98.282 E6.10222
G1 X94.925 Y97.789 E6.11862
G1 X94.931 Y97.583 E6.12547
G1 X94.945 Y97.303 E6.1348
G1 X94.976 Y96.878 E6.14897
G1 X95.045 Y96.3 E6.16833
G1 X95.144 Y95.701 E6.18853
G1 X95.279 Y95.076 E6.20979
G1 X95.447 Y94.454 E6.23122
G1 X95.667 Y93.789 E6.25452
G1 X95.891 Y93.217 E6.27495
G1 X96.061 Y92.822 E6.28925
G1 X96.152 Y92.629 E6.29635
G1 X96.29 Y92.353 E6.30661
G1 X96.491 Y91.975 E6.32085
G1 X96.789 Y91.473 E6.34027
G1 X97.112 Y90.98 E6.35987
G1 X97.36 Y90.627 E6.37422
G1 X97.481 Y90.467 E6.38089
G1 X97.696 Y90.199 E6.39232
G1 X97.994 Y89.846 E6.40769
G0 F3600 X98.299 Y90.104
G1 F1800 X98.661 Y89.712 E6.42543
G1 X99.104 Y89.273 E6.44618
G1 X99.572 Y88.855 E6.46705
G1 X100.058 Y88.465 E6.48777
G1 X100.575 Y88.094 E6.50894
G1 X101.096 Y87.76 E6.52952
G1 X101.445 Y87.552 E6.54303
G1 X101.627 Y87.452 E6.54994
G1 X101.885 Y87.318 E6.55961
G1 X102.254 Y87.138 E6.57327
G1 X102.548 Y87.005 E6.584
G1 X102.749 Y86.92 E6.59126
G1 X103.065 Y86.796 E6.60255
G1 X103.476 Y86.649 E6.61706
G1 X103.963 Y86.498 E6.63402
G1 X104.515 Y86.352 E6.65301
G1 X104.872 Y86.27 E6.6652
G1 X105.117 Y86.221 E6.67351
G1 X105.481 Y86.159 E6.68579
G1 X105.876 Y86.105 E6.69905
G1 X106.172 Y86.072 E6.70895
G1 X106.38 Y86.054 E6.7159
G1 X106.688 Y86.036 E6.72616
G1 X107.089 Y86.022 E6.73951
G1 X107.357 Y86.018 E6.74842
G1 X107.56 Y86.02 E6.75517
G1 X107.921 Y86.035 E6.76719
G1 X108.391 Y86.068 E6.78286
G1 X108.962 Y86.135 E6.80198
G1 X110.097 Y86.325 E6.84026
G1 X110.225 Y86.348 E6.84458
G1 X111.764 Y86.64 E6.89668
G1 X114.396 Y87.061 E6.98534
G1 X117.026 Y87.407 E7.07357
G1 X119.703 Y87.682 E7.16307
G1 X122.296 Y87.875 E7.24955
G1 X125.938 Y88.026 E7.37079
G1 X126.099 Y88.035 E7.37615
G1 X126.567 Y88.067 E7.39176
G1 X127.11 Y88.129 E7.40993
G1 X127.695 Y88.223 E7.42964
G1 X128.124 Y88.308 E7.44419
G1 X128.327 Y88.356 E7.45112
G1 X128.6 Y88.427 E7.46051
G1 X129.001 Y88.542 E7.47438
G1 X129.262 Y88.624 E7.48348
G1 X129.452 Y88.688 E7.49015
G1 X129.765 Y88.803 E7.50124
G1 X130.18 Y88.969 E7.51611
G1 X130.697 Y89.205 E7.53501
G1 X131.247 Y89.488 E7.55558
G1 X131.777 Y89.796 E7.57597
G1 X132.305 Y90.14 E7.59693
G1 X132.829 Y90.523 E7.61852
G1 X133.313 Y90.919 E7.63932
G1 X133.616 Y91.184 E7.6527
G1 X133.774 Y91.332 E7.6599
G1 X133.981 Y91.536 E7.66957
G1 X134.26 Y91.824 E7.68291
G1 X134.609 Y92.217 E7.70039
G1 X134.998 Y92.696 E7.72091
G1 X135.251 Y93.031 E7.73488
G1 X135.371 Y93.202 E7.74182
G1 X135.549 Y93.47 E7.75252
G1 X135.777 Y93.835 E7.76684
G1 X135.936 Y94.105 E7.77726
G1 X136.038 Y94.289 E7.78426
G1 X136.181 Y94.564 E7.79457
G1 X136.351 Y94.912 E7.80745
G1 X136.482 Y95.199 E7.81794
G1 X136.567 Y95.399 E7.82517
G1 X136.675 Y95.671 E7.8349
G1 X136.832 Y96.097 E7.85
G1 X137 Y96.63 E7.86859
G1 X137.154 Y97.209 E7.88852
G1 X137.242 Y97.585 E7.90136
G1 X137.285 Y97.802 E7.90872
G1 X137.339 Y98.119 E7.91941
G1 X137.396 Y98.518 E7.93282
G1 X137.432 Y98.831 E7.9433
G1 X137.451 Y99.043 E7.95038
G1 X137.471 Y99.357 E7.96084
G1 X137.492 Y99.925 E7.97975
G1 X137.496 Y100.085 E7.98507
G1 X137.5 Y100.475 E7.99804
G1 X137.5 Y138.27 E9.25511
G1 X137.499 Y138.353 E9.25787
G1 X137.488 Y139.147 E9.28428
G1 X137.479 Y139.409 E9.293
G1 X137.447 Y139.964 E9.31149
G1 X137.385 Y140.545 E9.33093
G1 X137.295 Y141.121 E9.35032
G1 X137.218 Y141.525 E9.36399
G1 X137.163 Y141.767 E9.37225
G1 X137.087 Y142.066 E9.38251
G1 X136.977 Y142.456 E9.39599
G1 X136.81 Y142.96 E9.41365
G1 X136.586 Y143.549 E9.43461
G1 X136.416 Y143.952 E9.44915
G1 X136.326 Y144.145 E9.45624
G1 X136.199 Y144.402 E9.46577
G1 X136.016 Y144.75 E9.47885
G1 X135.859 Y145.028 E9.48947
G1 X135.744 Y145.221 E9.49694
G1 X135.582 Y145.478 E9.50704
G1 X135.35 Y145.826 E9.52095
G1 X135.022 Y146.273 E9.53939
G1 X134.61 Y146.782 E9.56118
G1 X134.189 Y147.25 E9.58211
G1 X133.762 Y147.677 E9.6022
G1 X133.302 Y148.091 E9.62278
G1 X132.801 Y148.498 E9.64425
G1 X132.286 Y148.873 E9.66544
G1 X131.767 Y149.21 E9.68602
G1 X131.233 Y149.519 E9.70654
G1 X130.692 Y149.796 E9.72676
G1 X130.137 Y150.045 E9.74699
G1 X129.552 Y150.273 E9.76787
G1 X128.947 Y150.473 E9.78906
G1 X128.329 Y150.641 E9.81036
G1 X127.703 Y150.776 E9.83166
G1 X127.097 Y150.873 E9.85208
G1 X126.487 Y150.938 E9.87248
G1 X125.866 Y150.973 E9.89317
G1 X125.442 Y150.982 E9.90727
G1 X125.232 Y150.979 E9.91426
G1 X124.941 Y150.968 E9.92394
G1 X124.528 Y150.942 E9.93771
G1 X123.98 Y150.882 E9.95604
G1 X123.275 Y150.772 E9.97977
G1 X123.114 Y150.745 E9.9852
G1 X120.553 Y150.273 E10.07182
G1 X117.951 Y149.871 E10.15939
G1 X115.314 Y149.539 E10.24779
G1 X112.661 Y149.28 E10.33645
G1 X110.004 Y149.097 E10.42503
G1 X108.028 Y149.027 E10.49079
G1 X107.966 Y149.025 E10.49285
G1 X106.895 Y148.976 E10.52851
G1 X106.799 Y148.971 E10.53171
G1 X106.346 Y148.943 E10.54681
G1 X105.997 Y148.911 E10.55846
G1 X105.79 Y148.886 E10.5654
G1 X105.509 Y148.845 E10.57484
G1 X105.095 Y148.775 E10.58881
G1 X104.548 Y148.656 E10.60743
G1 X103.937 Y148.493 E10.62846
G1 X103.56 Y148.379 E10.64156
G1 X103.365 Y148.313 E10.64841
G1 X103.079 Y148.208 E10.65854
G1 X102.703 Y148.059 E10.67199
G1 X102.406 Y147.932 E10.68273
G1 X102.219 Y147.846 E10.68958
G1 X101.945 Y147.711 E10.69974
G1 X101.557 Y147.508 E10.7143
G1 X101.255 Y147.34 E10.7258
G1 X101.083 Y147.237 E10.73247
G1 X100.834 Y147.079 E10.74227
G1 X100.491 Y146.85 E10.75599
G1 X100.237 Y146.67 E10.76635
G1 X100.072 Y146.547 E10.77319
G1 X99.846 Y146.371 E10.78272
G1 X99.502 Y146.088 E10.79753
G1 X99.076 Y145.701 E10.81668
G1 X98.633 Y145.259 E10.83749
G1 X98.221 Y144.804 E10.85791
G1 X97.823 Y144.316 E10.87885
G1 X97.446 Y143.799 E10.90013
G1 X97.115 Y143.291 E10.9203
G1 X96.816 Y142.778 E10.94005
G1 X96.523 Y142.213 E10.96122
G1 X96.254 Y141.617 E10.98296
G1 X96.024 Y141.023 E11.00415
G1 X95.825 Y140.414 E11.02546
G1 X95.664 Y139.815 E11.04609
G1 X95.536 Y139.224 E11.0662
G1 X95.437 Y138.617 E11.08666
G1 X95.369 Y138.003 E11.1072
G1 X95.332 Y137.374 E11.12816
G1 X95.323 Y136.905 E11.14376
G1 X95.327 Y136.7 E11.15058
G1 X95.338 Y136.445 E11.15907
G1 X95.364 Y136.027 E11.173
G1 X95.43 Y135.438 E11.19271
G1 X95.692 Y133.824 E11.2471
G1 X95.712 Y133.706 E11.25108
G1 X95.827 Y133.077 E11.27235
G1 X96.236 Y130.414 E11.36196
G1 X96.563 Y127.781 E11.4502
G1 X96.817 Y125.144 E11.53832
G1 X96.995 Y122.496 E11.62659
G1 X97.099 Y119.863 E11.71423
G1 X97.127 Y117.158 E11.8042
G1 X97.082 Y114.531 E11.89159
G1 X96.96 Y111.868 E11.98026
G1 X96.763 Y109.213 E12.0688
G1 X96.49 Y106.551 E12.15781
G1 X96.148 Y103.945 E12.24523
G1 X95.493 Y100.019 E12.37761
G1 X95.466 Y99.842 E12.38357
G1 X95.407 Y99.409 E12.3981
G1 X95.359 Y98.887 E12.41554
G1 X95.329 Y98.263 E12.43631
G1 X95.325 Y97.8 E12.45171
G1 X95.331 Y97.594 E12.45857
G1 X95.344 Y97.333 E12.46726
G1 X95.375 Y96.908 E12.48143
G1 X95.439 Y96.366 E12.49959
G1 X95.538 Y95.767 E12.51978
G1 X95.666 Y95.18 E12.53976
G1 X95.834 Y94.558 E12.56119
G1 X96.039 Y93.935 E12.583
G1 X96.263 Y93.363 E12.60344
G1 X96.423 Y92.992 E12.61687
G1 X96.514 Y92.799 E12.62397
G1 X96.643 Y92.541 E12.63356
G1 X96.844 Y92.163 E12.6478
G1 X97.123 Y91.692 E12.66601
G1 X97.446 Y91.199 E12.68561
G1 X97.679 Y90.868 E12.69908
G1 X97.8 Y90.708 E12.70575
G1 X98.001 Y90.457 E12.71645
G1 X98.299 Y90.104 E12.73181
G0 F3600 X98.605 Y90.362
G1 F1800 X98.942 Y89.996 E12.74836
G1 X99.385 Y89.557 E12.7691
G1 X99.822 Y89.167 E12.78858
G1 X100.308 Y88.777 E12.80931
G1 X100.791 Y88.431 E12.82907
G1 X101.312 Y88.097 E12.84965
G1 X101.637 Y87.903 E12.86224
G1 X101.819 Y87.803 E12.86915
G1 X102.061 Y87.678 E12.87821
G1 X102.43 Y87.498 E12.89186
G1 X102.704 Y87.373 E12.90188
G1 X102.905 Y87.288 E12.90914
G1 X103.2 Y87.173 E12.91967
G1 X103.611 Y87.026 E12.93419
G1 X104.065 Y86.885 E12.95
G1 X104.617 Y86.739 E12.96899
G1 X104.951 Y86.662 E12.98039
G1 X105.196 Y86.613 E12.9887
G1 X105.535 Y86.556 E13.00013
G1 X105.93 Y86.502 E13.01339
G1 X106.206 Y86.471 E13.02263
G1 X106.414 Y86.453 E13.02958
G1 X106.702 Y86.435 E13.03917
G1 X107.103 Y86.421 E13.05252
G1 X107.353 Y86.418 E13.06083
G1 X107.556 Y86.42 E13.06759
G1 X107.893 Y86.434 E13.0788
G1 X108.363 Y86.467 E13.09448
G1 X108.896 Y86.53 E13.11233
G1 X110.031 Y86.72 E13.1506
G1 X110.15 Y86.741 E13.15462
G1 X111.692 Y87.034 E13.20683
G1 X114.352 Y87.459 E13.29642
G1 X116.97 Y87.804 E13.38425
G1 X119.633 Y88.077 E13.47328
G1 X122.31 Y88.277 E13.56257
G1 X125.921 Y88.426 E13.68277
G1 X126.072 Y88.434 E13.6878
G1 X126.54 Y88.466 E13.70341
G1 X127.046 Y88.524 E13.72034
G1 X127.631 Y88.618 E13.74005
G1 X128.032 Y88.697 E13.75365
G1 X128.235 Y88.745 E13.76058
G1 X128.49 Y88.812 E13.76935
G1 X128.891 Y88.927 E13.78323
G1 X129.135 Y89.003 E13.79173
G1 X129.325 Y89.067 E13.7984
G1 X129.617 Y89.175 E13.80875
G1 X130.032 Y89.341 E13.82362
G1 X130.514 Y89.561 E13.84124
G1 X131.064 Y89.844 E13.86181
G1 X131.559 Y90.131 E13.88084
G1 X132.087 Y90.475 E13.9018
G1 X132.576 Y90.833 E13.92196
G1 X133.06 Y91.229 E13.94276
G1 X133.342 Y91.476 E13.95523
G1 X133.5 Y91.624 E13.96243
G1 X133.694 Y91.815 E13.97148
G1 X133.973 Y92.103 E13.98482
G1 X134.298 Y92.469 E14.0011
G1 X134.687 Y92.948 E14.02162
G1 X134.924 Y93.261 E14.03468
G1 X135.044 Y93.432 E14.04163
G1 X135.21 Y93.682 E14.05161
G1 X135.438 Y94.047 E14.06592
G1 X135.586 Y94.299 E14.07564
G1 X135.688 Y94.483 E14.08264
G1 X135.822 Y94.74 E14.09228
G1 X135.992 Y95.088 E14.10516
G1 X136.114 Y95.356 E14.11496
