;FLAVOR:Marlin
;TIME:9466
;Filament used: 9.85994m
;Layer height: 0.2
;MINX:49.629
;MINY:62.324
;MINZ:0.2
;MAXX:185.371
;MAXY:172.676
;MAXZ:9.6
;Generated with Cura_SteamEngine 4.1.0
M140 S60
M105
M190 S60
M104 S200
M105
M109 S200
M82 ;absolute extrusion mode
; Ender 3 Custom Start G-code
G28 ; Home all axes
G92 E0 ; Reset Extruder
G1 Z2.0 F3000 ; Move Z Axis up little to prevent scratching of Heat Bed
G1 X0.1 Y20 Z0.3 F5000.0 ; Move to start position
G1 X0.1 Y200.0 Z0.3 F1500.0 E15 ; Draw the first line
G1 X0.4 Y200.0 Z0.3 F5000.0 ; Move to side a little
G1 X0.4 Y20 Z0.3 F1500.0 E30 ; Draw the second line
G92 E0 ; Reset Extruder
G1 Z2.0 F3000 ; Move Z Axis up little to prevent scratching of Heat Bed
; End of custom start GCode
G92 E0
G92 E0
G1 F2400 E-5
;LAYER_COUNT:48
;LAYER:0
M107
M204 S500
M205 X10 Y10
G0 F3600 X52.773 Y64.211 Z0.2
;TYPE:SKIRT
G1 F2400 E0
G1 F1800 X53.342 Y63.778 E0.02378
G1 X54.117 Y63.33 E0.05356
G1 X54.602 Y63.093 E0.07151
G1 X55.261 Y62.815 E0.0953
G1 X56.224 Y62.554 E0.12848
G1 X56.732 Y62.458 E0.14568
G1 X57.532 Y62.359 E0.17249
G1 X57.878 Y62.338 E0.18402
G1 X58.21 Y62.326 E0.19507
G1 X58.439 Y62.324 E0.20269
G1 X175.964 Y62.324 E4.11158
G1 X176.055 Y62.325 E4.11461
G1 X176.761 Y62.335 E4.13809
G1 X177.092 Y62.348 E4.14911
G1 X177.44 Y62.371 E4.16071
G1 X177.644 Y62.388 E4.16752
G1 X178.112 Y62.434 E4.18316
G1 X178.819 Y62.543 E4.20695
G1 X179.509 Y62.731 E4.23074
G1 X179.921 Y62.884 E4.24536
G1 X180.378 Y63.072 E4.26179
G1 X181.023 Y63.381 E4.28558
G1 X181.749 Y63.846 E4.31425
G1 X182.091 Y64.099 E4.3284
G1 X182.642 Y64.556 E4.35221
G1 X183.106 Y65.035 E4.37439
G1 X183.436 Y65.413 E4.39108
G1 X183.876 Y65.977 E4.41488
G1 X184.383 Y66.848 E4.4484
G1 X184.635 Y67.372 E4.46773
G1 X184.908 Y68.033 E4.49152
G1 X185.168 Y69.023 E4.52556
G1 X185.242 Y69.438 E4.53959
G1 X185.325 Y70.115 E4.56227
G1 X185.353 Y70.516 E4.57564
G1 X185.369 Y70.908 E4.58869
G1 X185.371 Y71.147 E4.59664
G1 X185.371 Y163.269 E7.66063
G1 X185.37 Y163.36 E7.66366
G1 X185.36 Y164.065 E7.68711
G1 X185.346 Y164.413 E7.69869
G1 X185.318 Y164.82 E7.71226
G1 X185.303 Y164.999 E7.71823
G1 X185.264 Y165.401 E7.73167
G1 X185.155 Y166.108 E7.75546
G1 X184.968 Y166.798 E7.77924
G1 X184.826 Y167.184 E7.79292
G1 X184.641 Y167.641 E7.80932
G1 X184.336 Y168.288 E7.83311
G1 X183.855 Y169.044 E7.86291
G1 X183.58 Y169.416 E7.8783
G1 X183.124 Y169.967 E7.90208
G1 X182.588 Y170.481 E7.92678
G1 X182.227 Y170.789 E7.94257
G1 X181.658 Y171.222 E7.96635
G1 X180.882 Y171.67 E7.99615
G1 X180.401 Y171.905 E8.01396
G1 X179.742 Y172.183 E8.03774
G1 X178.795 Y172.441 E8.07039
G1 X178.283 Y172.539 E8.08773
G1 X177.468 Y172.641 E8.11505
G1 X177.122 Y172.662 E8.12658
G1 X176.79 Y172.674 E8.13763
G1 X176.561 Y172.676 E8.14524
G1 X59.036 Y172.676 E12.05414
G1 X58.945 Y172.675 E12.05717
G1 X58.24 Y172.665 E12.08062
G1 X57.909 Y172.652 E12.09163
G1 X57.561 Y172.629 E12.10323
G1 X57.358 Y172.612 E12.11001
G1 X56.889 Y172.566 E12.12568
G1 X56.182 Y172.457 E12.14948
G1 X55.492 Y172.269 E12.17326
G1 X55.073 Y172.113 E12.18813
G1 X54.615 Y171.924 E12.20461
G1 X53.97 Y171.615 E12.2284
G1 X53.252 Y171.155 E12.25676
G1 X52.911 Y170.903 E12.27086
G1 X52.361 Y170.446 E12.29465
G1 X51.894 Y169.965 E12.31695
G1 X51.564 Y169.587 E12.33364
G1 X51.124 Y169.023 E12.35743
G1 X50.617 Y168.152 E12.39095
G1 X50.365 Y167.628 E12.41029
G1 X50.092 Y166.967 E12.43407
G1 X49.832 Y165.977 E12.46812
G1 X49.758 Y165.562 E12.48214
G1 X49.674 Y164.873 E12.50522
G1 X49.646 Y164.461 E12.51896
G1 X49.631 Y164.079 E12.53167
G1 X49.629 Y163.832 E12.53989
G1 X49.629 Y71.709 E15.60391
G1 X49.63 Y71.616 E15.60701
G1 X49.64 Y70.926 E15.62996
G1 X49.655 Y70.571 E15.64178
G1 X49.683 Y70.172 E15.65508
G1 X49.698 Y69.996 E15.66095
G1 X49.738 Y69.588 E15.67459
G1 X49.847 Y68.881 E15.69838
G1 X50.035 Y68.19 E15.7222
G1 X50.184 Y67.788 E15.73646
G1 X50.369 Y67.336 E15.7527
G1 X50.676 Y66.69 E15.77649
G1 X51.139 Y65.964 E15.80513
G1 X51.413 Y65.592 E15.8205
G1 X51.869 Y65.041 E15.84429
G1 X52.412 Y64.519 E15.86934
G1 X52.773 Y64.211 E15.88512
G0 F3600 X53.033 Y64.516
G1 F1800 X53.585 Y64.097 E15.90817
G1 X54.293 Y63.689 E15.93535
G1 X54.778 Y63.452 E15.9533
G1 X55.416 Y63.185 E15.97631
G1 X56.298 Y62.947 E16.00669
G1 X56.806 Y62.851 E16.02389
G1 X57.557 Y62.758 E16.04906
G1 X57.903 Y62.737 E16.06059
G1 X58.214 Y62.726 E16.07094
G1 X58.443 Y62.724 E16.07855
G1 X175.964 Y62.724 E19.98732
G1 X176.049 Y62.725 E19.99014
G1 X176.755 Y62.735 E20.01363
G1 X177.066 Y62.747 E20.02398
G1 X177.414 Y62.77 E20.03558
G1 X177.605 Y62.786 E20.04195
G1 X178.073 Y62.832 E20.0576
G1 X178.757 Y62.939 E20.08062
G1 X179.424 Y63.125 E20.10365
G1 X179.769 Y63.254 E20.1159
G1 X180.226 Y63.442 E20.13234
G1 X180.85 Y63.742 E20.15537
G1 X181.511 Y64.167 E20.1815
G1 X181.853 Y64.42 E20.19565
G1 X182.385 Y64.864 E20.2187
G1 X182.805 Y65.298 E20.23879
G1 X183.135 Y65.676 E20.25548
G1 X183.559 Y66.223 E20.2785
G1 X184.022 Y67.022 E20.30921
G1 X184.274 Y67.546 E20.32855
G1 X184.538 Y68.186 E20.35158
G1 X184.774 Y69.093 E20.38275
G1 X184.848 Y69.508 E20.39677
G1 X184.926 Y70.143 E20.41805
G1 X184.954 Y70.544 E20.43142
G1 X184.969 Y70.912 E20.44367
G1 X184.971 Y71.151 E20.45162
G1 X184.971 Y163.269 E23.51547
G1 X184.97 Y163.354 E23.5183
G1 X184.96 Y164.059 E23.54175
G1 X184.947 Y164.386 E23.55264
G1 X184.919 Y164.793 E23.56621
G1 X184.905 Y164.96 E23.57178
G1 X184.866 Y165.362 E23.58521
G1 X184.759 Y166.047 E23.60827
G1 X184.456 Y167.034 E23.64261
G1 X184.271 Y167.491 E23.65901
G1 X183.974 Y168.117 E23.68206
G1 X183.534 Y168.807 E23.70927
G1 X183.259 Y169.179 E23.72466
G1 X182.816 Y169.711 E23.74769
G1 X182.328 Y170.176 E23.77011
G1 X181.967 Y170.484 E23.78589
G1 X181.415 Y170.903 E23.80894
G1 X180.707 Y171.311 E23.83612
G1 X180.226 Y171.546 E23.85392
G1 X179.587 Y171.814 E23.87697
G1 X178.72 Y172.048 E23.90684
G1 X178.208 Y172.146 E23.92418
G1 X177.443 Y172.242 E23.94982
G1 X177.097 Y172.263 E23.96135
G1 X176.786 Y172.274 E23.9717
G1 X176.557 Y172.276 E23.97932
G1 X59.036 Y172.276 E27.88808
G1 X58.951 Y172.275 E27.89091
G1 X58.246 Y172.265 E27.91436
G1 X57.935 Y172.253 E27.92471
G1 X57.587 Y172.23 E27.93631
G1 X57.397 Y172.214 E27.94265
G1 X56.928 Y172.168 E27.95833
G1 X56.244 Y172.061 E27.98135
G1 X55.577 Y171.876 E28.00437
G1 X55.225 Y171.743 E28.01689
G1 X54.767 Y171.554 E28.03337
G1 X54.143 Y171.254 E28.0564
G1 X53.49 Y170.833 E28.08224
G1 X53.149 Y170.581 E28.09634
G1 X52.617 Y170.138 E28.11937
G1 X52.195 Y169.702 E28.13955
G1 X51.865 Y169.324 E28.15624
G1 X51.441 Y168.777 E28.17926
G1 X50.978 Y167.978 E28.20997
G1 X50.726 Y167.454 E28.22931
G1 X50.462 Y166.814 E28.25234
G1 X50.226 Y165.907 E28.28351
G1 X50.152 Y165.492 E28.29753
G1 X50.073 Y164.846 E28.31917
G1 X50.045 Y164.434 E28.33291
G1 X50.031 Y164.076 E28.34483
G1 X50.029 Y163.829 E28.35304
G1 X50.029 Y71.709 E31.41696
G1 X50.03 Y71.622 E31.41986
G1 X50.04 Y70.932 E31.44281
G1 X50.054 Y70.599 E31.4539
G1 X50.082 Y70.2 E31.4672
G1 X50.096 Y70.035 E31.47271
G1 X50.136 Y69.627 E31.48634
G1 X50.243 Y68.942 E31.5094
G1 X50.428 Y68.275 E31.53242
G1 X50.554 Y67.939 E31.54436
G1 X50.739 Y67.487 E31.5606
G1 X51.038 Y66.863 E31.58362
G1 X51.461 Y66.202 E31.60972
G1 X51.735 Y65.83 E31.62508
G1 X52.177 Y65.297 E31.64811
G1 X52.672 Y64.824 E31.67089
G1 X53.033 Y64.516 E31.68667
G0 F3600 X53.292 Y64.82
G1 F1800 X53.826 Y64.417 E31.70892
G1 X54.468 Y64.049 E31.73353
G1 X54.953 Y63.812 E31.75149
G1 X55.571 Y63.554 E31.77376
G1 X56.372 Y63.34 E31.80134
G1 X56.88 Y63.244 E31.81853
G1 X57.581 Y63.157 E31.84203
G1 X57.927 Y63.136 E31.85356
G1 X58.217 Y63.126 E31.86321
G1 X58.446 Y63.124 E31.87082
G1 X175.964 Y63.124 E35.77949
G1 X176.043 Y63.125 E35.78212
G1 X176.749 Y63.135 E35.8056
G1 X177.039 Y63.146 E35.81525
G1 X177.387 Y63.169 E35.82685
G1 X177.566 Y63.184 E35.83283
G1 X178.034 Y63.23 E35.84847
G1 X178.695 Y63.335 E35.87073
G1 X179.616 Y63.624 E35.90283
G1 X180.073 Y63.812 E35.91927
G1 X180.676 Y64.103 E35.94154
G1 X181.273 Y64.489 E35.96518
G1 X181.615 Y64.742 E35.97933
G1 X182.129 Y65.171 E36.0016
G1 X182.504 Y65.561 E36.0196
G1 X182.834 Y65.939 E36.03628
G1 X183.243 Y66.468 E36.05852
G1 X183.662 Y67.195 E36.08643
G1 X183.914 Y67.719 E36.10577
G1 X184.167 Y68.338 E36.12801
G1 X184.38 Y69.163 E36.15635
G1 X184.454 Y69.578 E36.17037
G1 X184.527 Y70.171 E36.19025
G1 X184.555 Y70.572 E36.20362
G1 X184.569 Y70.915 E36.21503
G1 X184.571 Y71.154 E36.22298
G1 X184.571 Y163.269 E39.28674
G1 X184.57 Y163.348 E39.28937
G1 X184.56 Y164.053 E39.31282
G1 X184.548 Y164.358 E39.32297
G1 X184.52 Y164.765 E39.33654
G1 X184.507 Y164.922 E39.34178
G1 X184.468 Y165.324 E39.35521
G1 X184.364 Y165.985 E39.37747
G1 X184.085 Y166.884 E39.40878
G1 X183.9 Y167.341 E39.42517
G1 X183.612 Y167.945 E39.44743
G1 X183.212 Y168.569 E39.47208
G1 X182.937 Y168.941 E39.48747
G1 X182.508 Y169.454 E39.50971
G1 X182.069 Y169.872 E39.52987
G1 X181.708 Y170.18 E39.54566
G1 X181.174 Y170.583 E39.56791
G1 X180.531 Y170.952 E39.59256
G1 X180.05 Y171.187 E39.61037
G1 X179.433 Y171.444 E39.6326
G1 X178.645 Y171.655 E39.65973
G1 X178.133 Y171.753 E39.67707
G1 X177.419 Y171.843 E39.70101
G1 X177.073 Y171.864 E39.71254
G1 X176.783 Y171.874 E39.72219
G1 X176.554 Y171.876 E39.7298
G1 X59.036 Y171.876 E43.63847
G1 X58.957 Y171.875 E43.6411
G1 X58.252 Y171.865 E43.66455
G1 X57.962 Y171.854 E43.6742
G1 X57.614 Y171.831 E43.6858
G1 X57.436 Y171.816 E43.69174
G1 X56.967 Y171.77 E43.70741
G1 X56.307 Y171.665 E43.72964
G1 X55.378 Y171.374 E43.76202
G1 X54.92 Y171.185 E43.7785
G1 X54.318 Y170.893 E43.80075
G1 X53.728 Y170.512 E43.82411
G1 X53.387 Y170.26 E43.83822
G1 X52.873 Y169.831 E43.86048
G1 X52.496 Y169.439 E43.87857
G1 X52.166 Y169.061 E43.89526
G1 X51.757 Y168.532 E43.9175
G1 X51.338 Y167.805 E43.94541
G1 X51.086 Y167.281 E43.96475
G1 X50.833 Y166.662 E43.98699
G1 X50.62 Y165.837 E44.01533
G1 X50.546 Y165.422 E44.02935
G1 X50.472 Y164.819 E44.04956
G1 X50.444 Y164.407 E44.06329
G1 X50.431 Y164.072 E44.07444
G1 X50.429 Y163.825 E44.08266
G1 X50.429 Y71.709 E47.14645
G1 X50.43 Y71.628 E47.14914
G1 X50.44 Y70.938 E47.1721
G1 X50.453 Y70.627 E47.18245
G1 X50.481 Y70.228 E47.19575
G1 X50.494 Y70.074 E47.20089
G1 X50.534 Y69.666 E47.21453
G1 X50.639 Y69.005 E47.23679
G1 X50.924 Y68.091 E47.26863
G1 X51.109 Y67.639 E47.28488
G1 X51.399 Y67.036 E47.30713
G1 X51.783 Y66.439 E47.33074
G1 X52.057 Y66.067 E47.34611
G1 X52.485 Y65.553 E47.36835
G1 X52.931 Y65.128 E47.38884
G1 X53.292 Y64.82 E47.40463
G0 F3600 X53.552 Y65.124
G1 F1800 X54.067 Y64.737 E47.42605
G1 X54.644 Y64.408 E47.44814
G1 X55.129 Y64.171 E47.4661
G1 X55.725 Y63.924 E47.48756
G1 X56.446 Y63.733 E47.51236
G1 X56.954 Y63.637 E47.52956
G1 X57.605 Y63.557 E47.55137
G1 X57.951 Y63.536 E47.5629
G1 X58.221 Y63.526 E47.57189
G1 X58.45 Y63.524 E47.57951
G1 X175.964 Y63.524 E51.48804
G1 X176.038 Y63.525 E51.4905
G1 X176.744 Y63.535 E51.51398
G1 X177.013 Y63.545 E51.52294
G1 X177.361 Y63.568 E51.53454
G1 X177.527 Y63.582 E51.54008
G1 X177.995 Y63.628 E51.55572
G1 X178.631 Y63.731 E51.57715
G1 X179.464 Y63.994 E51.6062
G1 X179.921 Y64.182 E51.62264
G1 X180.501 Y64.464 E51.64409
G1 X181.036 Y64.811 E51.6653
G1 X181.378 Y65.064 E51.67945
G1 X181.871 Y65.478 E51.70086
G1 X182.202 Y65.824 E51.71678
G1 X182.532 Y66.202 E51.73347
G1 X182.925 Y66.713 E51.75491
G1 X183.301 Y67.368 E51.78003
G1 X183.553 Y67.892 E51.79937
G1 X183.796 Y68.489 E51.82081
G1 X183.986 Y69.233 E51.84635
G1 X184.06 Y69.648 E51.86037
G1 X184.128 Y70.199 E51.87884
G1 X184.156 Y70.6 E51.89221
G1 X184.169 Y70.918 E51.90279
G1 X184.171 Y71.157 E51.91074
G1 X184.171 Y163.269 E54.9744
G1 X184.17 Y163.343 E54.97686
G1 X184.16 Y164.048 E55.00031
G1 X184.149 Y164.331 E55.00973
G1 X184.121 Y164.738 E55.0233
G1 X184.109 Y164.883 E55.02814
G1 X184.07 Y165.285 E55.04157
G1 X183.968 Y165.922 E55.06303
G1 X183.714 Y166.734 E55.09133
G1 X183.529 Y167.191 E55.10772
G1 X183.251 Y167.773 E55.12918
G1 X182.89 Y168.331 E55.15128
G1 X182.615 Y168.703 E55.16667
G1 X182.201 Y169.197 E55.18811
G1 X181.809 Y169.568 E55.20606
G1 X181.448 Y169.876 E55.22184
G1 X180.933 Y170.263 E55.24327
G1 X180.356 Y170.592 E55.26536
G1 X179.875 Y170.827 E55.28316
G1 X179.279 Y171.074 E55.30462
G1 X178.57 Y171.262 E55.32902
G1 X178.058 Y171.36 E55.34636
G1 X177.395 Y171.443 E55.36858
G1 X177.049 Y171.464 E55.38011
G1 X176.779 Y171.474 E55.38909
G1 X176.55 Y171.476 E55.39671
G1 X59.036 Y171.476 E59.30524
G1 X58.962 Y171.475 E59.3077
G1 X58.257 Y171.465 E59.33116
G1 X57.988 Y171.455 E59.34011
G1 X57.64 Y171.432 E59.35171
G1 X57.475 Y171.418 E59.35722
G1 X57.006 Y171.372 E59.37289
G1 X56.37 Y171.27 E59.39431
G1 X55.53 Y171.004 E59.42362
G1 X55.072 Y170.815 E59.4401
G1 X54.493 Y170.532 E59.46153
G1 X53.966 Y170.19 E59.48243
G1 X53.625 Y169.938 E59.49653
G1 X53.131 Y169.523 E59.51799
G1 X52.798 Y169.176 E59.53399
G1 X52.468 Y168.798 E59.55068
G1 X52.075 Y168.287 E59.57212
G1 X51.699 Y167.632 E59.59724
G1 X51.447 Y167.108 E59.61658
G1 X51.204 Y166.511 E59.63801
G1 X51.014 Y165.767 E59.66355
G1 X50.94 Y165.352 E59.67757
G1 X50.871 Y164.792 E59.69634
G1 X50.843 Y164.38 E59.71008
G1 X50.831 Y164.069 E59.72043
G1 X50.829 Y163.822 E59.72864
G1 X50.829 Y71.709 E62.79233
G1 X50.83 Y71.634 E62.79483
G1 X50.84 Y70.944 E62.81778
G1 X50.852 Y70.655 E62.8274
G1 X50.88 Y70.256 E62.8407
G1 X50.892 Y70.113 E62.84548
G1 X50.932 Y69.705 E62.85911
G1 X51.034 Y69.068 E62.88057
G1 X51.294 Y68.242 E62.90937
G1 X51.479 Y67.79 E62.92561
G1 X51.76 Y67.21 E62.94705
G1 X52.105 Y66.676 E62.9682
G1 X52.379 Y66.304 E62.98356
G1 X52.793 Y65.81 E63.005
G1 X53.191 Y65.432 E63.02326
G1 X53.552 Y65.124 E63.03904
G1 F2400 E58.03904
;MESH:VCU_Housing_Bottom_V1.stl
G0 F3600 X56.303 Y68.712
G0 X57.073 Y69.715
G0 X62.653 Y76.522
G0 X62.739 Y76.571
;TYPE:WALL-INNER
G1 F2400 E63.03904
G1 F1800 X62.43 Y77.321 E63.06602
G1 X62.323 Y78.124 E63.09296
G1 X62.43 Y78.927 E63.11991
G1 X62.739 Y79.677 E63.14689
G1 X63.234 Y80.32 E63.17387
G1 X63.876 Y80.813 E63.2008
G1 X64.626 Y81.124 E63.2278
G1 X65.429 Y81.229 E63.25474
G1 X66.233 Y81.124 E63.28171
G1 X66.982 Y80.813 E63.30868
G1 X67.625 Y80.32 E63.33563
G1 X68.12 Y79.677 E63.36262
G1 X68.429 Y78.927 E63.3896
G1 X68.534 Y78.124 E63.41653
G1 X68.429 Y77.321 E63.44347
G1 X68.12 Y76.571 E63.47045
G1 X67.625 Y75.928 E63.49744
G1 X66.982 Y75.435 E63.52439
G1 X66.233 Y75.124 E63.55136
G1 X65.429 Y75.019 E63.57833
G1 X64.626 Y75.124 E63.60526
G1 X63.876 Y75.435 E63.63227
G1 X63.234 Y75.928 E63.65919
G1 X62.739 Y76.571 E63.68618
G0 F3600 X62.653 Y76.522
G0 X62.392 Y77.311
G0 X62.653 Y155.274
G0 X62.739 Y155.323
G1 F1800 X62.43 Y156.073 E63.71316
G1 X62.323 Y156.876 E63.7401
G1 X62.43 Y157.679 E63.76705
G1 X62.739 Y158.429 E63.79403
G1 X63.234 Y159.072 E63.82102
G1 X63.876 Y159.565 E63.84794
G1 X64.626 Y159.876 E63.87494
G1 X65.429 Y159.981 E63.90188
G1 X66.233 Y159.876 E63.92885
G1 X66.982 Y159.565 E63.95582
G1 X67.625 Y159.072 E63.98277
G1 X68.12 Y158.429 E64.00976
G1 X68.429 Y157.679 E64.03674
G1 X68.534 Y156.876 E64.06367
G1 X68.429 Y156.073 E64.09061
G1 X68.12 Y155.323 E64.11759
G1 X67.625 Y154.68 E64.14458
G1 X66.982 Y154.187 E64.17153
G1 X66.233 Y153.876 E64.1985
G1 X65.429 Y153.771 E64.22547
G1 X64.626 Y153.876 E64.2524
G1 X63.876 Y154.187 E64.27941
G1 X63.234 Y154.68 E64.30633
G1 X62.739 Y155.323 E64.33332
G0 F3600 X62.653 Y155.274
G0 X63.206 Y154.652
G0 X63.856 Y154.153
G0 X64.616 Y153.838
G0 X166.794 Y155.274
G0 X166.88 Y155.323
G1 F1800 X166.571 Y156.073 E64.3603
G1 X166.466 Y156.876 E64.38723
G1 X166.571 Y157.679 E64.41417
G1 X166.88 Y158.429 E64.44115
G1 X167.375 Y159.072 E64.46814
G1 X168.018 Y159.565 E64.49509
G1 X168.767 Y159.876 E64.52206
G1 X169.571 Y159.981 E64.54903
G1 X170.374 Y159.876 E64.57596
G1 X171.124 Y159.565 E64.60297
G1 X171.766 Y159.072 E64.62989
G1 X172.261 Y158.429 E64.65688
G1 X172.57 Y157.679 E64.68386
G1 X172.677 Y156.876 E64.7108
G1 X172.57 Y156.073 E64.73775
G1 X172.261 Y155.323 E64.76473
G1 X171.766 Y154.68 E64.79172
G1 X171.124 Y154.187 E64.81864
G1 X170.374 Y153.876 E64.84564
G1 X169.571 Y153.771 E64.87258
G1 X168.767 Y153.876 E64.89955
G1 X168.018 Y154.187 E64.92652
G1 X167.375 Y154.68 E64.95347
